;FLAVOR:Marlin
;TIME:10964
;Filament used: 10.6167m
;Layer height: 0.2
;Generated with Cura_SteamEngine 3.6.0
M140 S60
M105
M190 S60
M104 S215
M105
M109 S215
M82 ;absolute extrusion mode
G21 ;metric values
 G90 ;absolute positioning
 M82 ;set extruder to absolute mode
 M107 ;start with the fan off
 G28 X0 Y0 ;move X/Y to min endstops
 G28 Z0 ;move Z to min endstops
 G1 Z15.0 F{travel_speed} ;move the platform down 15mm
 G92 E0 ;zero the extruded length
 G1 F200 E6 ;extrude 6 mm of feed stock
 G92 E0 ;zero the extruded length again
 G1 F{travel_speed} 
 ;Put printing message on LCD screen
 M117 Printing...
G92 E0
G1 F1500 E-0.25
;LAYER_COUNT:194
;LAYER:0
M107
M204 S5000
M205 X30 Y30
G0 F3600 X31.504 Y53.262 Z0.3
M204 S800
M205 X8 Y8
;TYPE:SKIRT
G1 F1500 E0
G1 F1800 X32.222 Y52.932 E0.03942
G1 X32.969 Y52.677 E0.0788
G1 X33.738 Y52.498 E0.11819
G1 X34.522 Y52.398 E0.15763
G1 X35.117 Y52.375 E0.18733
G1 X164.883 Y52.375 E6.66138
G1 X165.672 Y52.415 E6.7008
G1 X166.452 Y52.534 E6.74016
G1 X167.217 Y52.732 E6.77959
G1 X167.957 Y53.006 E6.81895
G1 X168.666 Y53.354 E6.85836
G1 X169.337 Y53.772 E6.8978
G1 X169.961 Y54.255 E6.93717
G1 X170.398 Y54.66 E6.96689
G1 X170.515 Y54.777 E6.97515
G1 X171.045 Y55.363 E7.01457
G1 X171.512 Y55.999 E7.05393
G1 X171.913 Y56.679 E7.09332
G1 X172.243 Y57.397 E7.13274
G1 X172.498 Y58.144 E7.17212
G1 X172.677 Y58.913 E7.21151
G1 X172.777 Y59.697 E7.25094
G1 X172.8 Y60.292 E7.28065
G1 X172.8 Y139.708 E11.24273
G1 X172.76 Y140.497 E11.28214
G1 X172.641 Y141.277 E11.32151
G1 X172.443 Y142.042 E11.36093
G1 X172.169 Y142.782 E11.4003
G1 X171.821 Y143.491 E11.4397
G1 X171.403 Y144.162 E11.47914
G1 X170.92 Y144.786 E11.51851
G1 X170.515 Y145.223 E11.54824
G1 X170.398 Y145.34 E11.55649
G1 X169.812 Y145.87 E11.59591
G1 X169.176 Y146.337 E11.63528
G1 X168.496 Y146.738 E11.67466
G1 X167.778 Y147.068 E11.71408
G1 X167.031 Y147.323 E11.75346
G1 X166.262 Y147.502 E11.79285
G1 X165.478 Y147.602 E11.83229
G1 X164.883 Y147.625 E11.86199
G1 X35.117 Y147.625 E18.33604
G1 X34.328 Y147.585 E18.37546
G1 X33.548 Y147.466 E18.41482
G1 X32.783 Y147.268 E18.45425
G1 X32.043 Y146.994 E18.49362
G1 X31.334 Y146.646 E18.53302
G1 X30.663 Y146.228 E18.57246
G1 X30.039 Y145.745 E18.61183
G1 X29.602 Y145.34 E18.64155
G1 X29.485 Y145.223 E18.64981
G1 X28.955 Y144.637 E18.68923
G1 X28.488 Y144.001 E18.72859
G1 X28.087 Y143.321 E18.76798
G1 X27.757 Y142.603 E18.8074
G1 X27.502 Y141.856 E18.84678
G1 X27.323 Y141.087 E18.88617
G1 X27.223 Y140.303 E18.9256
G1 X27.2 Y139.708 E18.95531
G1 X27.2 Y60.292 E22.91739
G1 X27.24 Y59.503 E22.9568
G1 X27.359 Y58.723 E22.99617
G1 X27.557 Y57.958 E23.03559
G1 X27.831 Y57.218 E23.07496
G1 X28.179 Y56.509 E23.11436
G1 X28.597 Y55.838 E23.1538
G1 X29.08 Y55.214 E23.19317
G1 X29.485 Y54.777 E23.2229
G1 X29.602 Y54.66 E23.23115
G1 X30.188 Y54.13 E23.27057
G1 X30.824 Y53.663 E23.30994
G1 X31.504 Y53.262 E23.34932
M204 S5000
M205 X30 Y30
G0 F3600 X31.743 Y53.589
M204 S800
M205 X8 Y8
G1 F1800 X32.445 Y53.274 E23.38771
G1 X33.176 Y53.034 E23.42609
G1 X33.927 Y52.871 E23.46443
G1 X34.692 Y52.787 E23.50283
G1 X35.117 Y52.775 E23.52404
G1 X164.883 Y52.775 E29.99809
G1 X165.651 Y52.815 E30.03646
G1 X166.411 Y52.934 E30.07484
G1 X167.154 Y53.132 E30.1132
G1 X167.873 Y53.406 E30.15159
G1 X168.559 Y53.753 E30.18994
G1 X169.206 Y54.169 E30.22832
G1 X169.806 Y54.65 E30.26668
G1 X170.116 Y54.942 E30.28793
G1 X170.233 Y55.059 E30.29619
G1 X170.747 Y55.631 E30.33455
G1 X171.2 Y56.253 E30.37294
G1 X171.586 Y56.918 E30.4113
G1 X171.901 Y57.62 E30.44969
G1 X172.141 Y58.351 E30.48807
G1 X172.304 Y59.102 E30.52641
G1 X172.388 Y59.867 E30.56481
G1 X172.4 Y60.292 E30.58602
G1 X172.4 Y139.708 E34.5481
G1 X172.36 Y140.476 E34.58647
G1 X172.241 Y141.236 E34.62485
G1 X172.043 Y141.979 E34.66321
G1 X171.769 Y142.698 E34.7016
G1 X171.422 Y143.384 E34.73995
G1 X171.006 Y144.031 E34.77833
G1 X170.525 Y144.631 E34.81669
G1 X170.233 Y144.941 E34.83794
G1 X170.116 Y145.058 E34.84619
G1 X169.544 Y145.572 E34.88456
G1 X168.922 Y146.025 E34.92295
G1 X168.257 Y146.411 E34.96131
G1 X167.555 Y146.726 E34.9997
G1 X166.824 Y146.966 E35.03808
G1 X166.073 Y147.129 E35.07642
G1 X165.308 Y147.213 E35.11482
G1 X164.883 Y147.225 E35.13603
G1 X35.117 Y147.225 E41.61008
G1 X34.349 Y147.185 E41.64845
G1 X33.589 Y147.066 E41.68683
G1 X32.846 Y146.868 E41.72519
G1 X32.127 Y146.594 E41.76358
G1 X31.441 Y146.247 E41.80193
G1 X30.794 Y145.831 E41.84031
G1 X30.194 Y145.35 E41.87867
G1 X29.884 Y145.058 E41.89992
G1 X29.767 Y144.941 E41.90817
G1 X29.253 Y144.369 E41.94654
G1 X28.8 Y143.747 E41.98493
G1 X28.414 Y143.082 E42.02329
G1 X28.099 Y142.38 E42.06168
G1 X27.859 Y141.649 E42.10006
G1 X27.696 Y140.898 E42.1384
G1 X27.612 Y140.133 E42.1768
G1 X27.6 Y139.708 E42.19801
G1 X27.6 Y60.292 E46.16009
G1 X27.64 Y59.524 E46.19846
G1 X27.759 Y58.764 E46.23684
G1 X27.957 Y58.021 E46.2752
G1 X28.231 Y57.302 E46.31359
G1 X28.578 Y56.616 E46.35194
G1 X28.994 Y55.969 E46.39032
G1 X29.475 Y55.369 E46.42868
G1 X29.767 Y55.059 E46.44993
G1 X29.884 Y54.942 E46.45818
G1 X30.456 Y54.428 E46.49655
G1 X31.078 Y53.975 E46.53494
G1 X31.743 Y53.589 E46.5733
M204 S5000
M205 X30 Y30
G0 F3600 X31.98 Y53.917
M204 S800
M205 X8 Y8
G1 F1800 X32.666 Y53.618 E46.61063
G1 X33.38 Y53.394 E46.64797
G1 X34.113 Y53.247 E46.68526
G1 X35.117 Y53.175 E46.73548
G1 X164.883 Y53.175 E53.20953
G1 X165.63 Y53.215 E53.24686
G1 X166.368 Y53.334 E53.28415
G1 X167.09 Y53.532 E53.3215
G1 X167.786 Y53.805 E53.3588
G1 X168.449 Y54.152 E53.39613
G1 X169.072 Y54.567 E53.43348
G1 X169.833 Y55.225 E53.48367
G1 X169.95 Y55.342 E53.49193
G1 X170.45 Y55.899 E53.52927
G1 X170.887 Y56.505 E53.56654
G1 X171.258 Y57.155 E53.60388
G1 X171.557 Y57.841 E53.64122
G1 X171.781 Y58.555 E53.67855
G1 X171.928 Y59.288 E53.71585
G1 X172 Y60.292 E53.76607
G1 X172 Y139.708 E57.72815
G1 X171.96 Y140.455 E57.76547
G1 X171.841 Y141.193 E57.80276
G1 X171.643 Y141.915 E57.84011
G1 X171.37 Y142.611 E57.87741
G1 X171.023 Y143.274 E57.91475
G1 X170.608 Y143.897 E57.95209
G1 X169.95 Y144.658 E58.00228
G1 X169.833 Y144.775 E58.01054
G1 X169.276 Y145.275 E58.04788
G1 X168.67 Y145.712 E58.08516
G1 X168.02 Y146.083 E58.12249
G1 X167.334 Y146.382 E58.15983
G1 X166.62 Y146.606 E58.19716
G1 X165.887 Y146.753 E58.23446
G1 X164.883 Y146.825 E58.28468
G1 X35.117 Y146.825 E64.75873
G1 X34.37 Y146.785 E64.79605
G1 X33.632 Y146.666 E64.83335
G1 X32.91 Y146.468 E64.8707
G1 X32.214 Y146.195 E64.908
G1 X31.551 Y145.848 E64.94533
G1 X30.928 Y145.433 E64.98268
G1 X30.167 Y144.775 E65.03287
G1 X30.05 Y144.658 E65.04112
G1 X29.55 Y144.101 E65.07846
G1 X29.113 Y143.495 E65.11574
G1 X28.742 Y142.845 E65.15308
G1 X28.443 Y142.159 E65.19041
G1 X28.219 Y141.445 E65.22775
G1 X28.072 Y140.712 E65.26504
G1 X28 Y139.708 E65.31526
G1 X28 Y60.292 E69.27734
G1 X28.04 Y59.545 E69.31466
G1 X28.159 Y58.807 E69.35196
G1 X28.357 Y58.085 E69.38931
G1 X28.63 Y57.389 E69.42661
G1 X28.977 Y56.726 E69.46394
G1 X29.392 Y56.103 E69.50129
G1 X30.05 Y55.342 E69.55148
G1 X30.167 Y55.225 E69.55973
G1 X30.724 Y54.725 E69.59708
G1 X31.33 Y54.288 E69.63435
G1 X31.98 Y53.917 E69.67169
M204 S5000
M205 X30 Y30
G0 F3600 X32.216 Y54.247
M204 S800
M205 X8 Y8
G1 F1800 X32.885 Y53.964 E69.70793
G1 X33.581 Y53.756 E69.74417
G1 X34.296 Y53.626 E69.78043
G1 X35.117 Y53.575 E69.82147
G1 X164.883 Y53.575 E76.29552
G1 X165.608 Y53.615 E76.33174
G1 X166.325 Y53.734 E76.368
G1 X167.024 Y53.932 E76.40425
G1 X167.697 Y54.205 E76.44048
G1 X168.336 Y54.55 E76.47671
G1 X168.933 Y54.964 E76.51296
G1 X169.55 Y55.508 E76.554
G1 X169.667 Y55.625 E76.56225
G1 X170.151 Y56.166 E76.59847
G1 X170.574 Y56.757 E76.63473
G1 X170.928 Y57.391 E76.67095
G1 X171.211 Y58.06 E76.70719
G1 X171.419 Y58.756 E76.74343
G1 X171.549 Y59.471 E76.77969
G1 X171.6 Y60.292 E76.82073
G1 X171.6 Y139.708 E80.78281
G1 X171.56 Y140.433 E80.81903
G1 X171.441 Y141.15 E80.8553
G1 X171.243 Y141.849 E80.89154
G1 X170.97 Y142.522 E80.92777
G1 X170.625 Y143.161 E80.964
G1 X170.211 Y143.758 E81.00025
G1 X169.667 Y144.375 E81.04129
G1 X169.55 Y144.492 E81.04954
G1 X169.009 Y144.976 E81.08576
G1 X168.418 Y145.399 E81.12202
G1 X167.784 Y145.753 E81.15824
G1 X167.115 Y146.036 E81.19448
G1 X166.419 Y146.244 E81.23073
G1 X165.704 Y146.374 E81.26698
G1 X164.883 Y146.425 E81.30802
G1 X35.117 Y146.425 E87.78207
G1 X34.392 Y146.385 E87.8183
G1 X33.675 Y146.266 E87.85456
G1 X32.976 Y146.068 E87.8908
G1 X32.303 Y145.795 E87.92704
G1 X31.664 Y145.45 E87.96327
G1 X31.067 Y145.036 E87.99951
G1 X30.45 Y144.492 E88.04055
G1 X30.333 Y144.375 E88.04881
G1 X29.849 Y143.834 E88.08502
G1 X29.426 Y143.243 E88.12128
G1 X29.072 Y142.609 E88.15751
G1 X28.789 Y141.94 E88.19375
G1 X28.581 Y141.244 E88.22999
G1 X28.451 Y140.529 E88.26624
G1 X28.4 Y139.708 E88.30728
G1 X28.4 Y60.292 E92.26936
G1 X28.44 Y59.567 E92.30559
G1 X28.559 Y58.85 E92.34185
G1 X28.757 Y58.151 E92.37809
G1 X29.03 Y57.478 E92.41433
G1 X29.375 Y56.839 E92.45056
G1 X29.789 Y56.242 E92.4868
G1 X30.333 Y55.625 E92.52784
G1 X30.45 Y55.508 E92.5361
G1 X30.991 Y55.024 E92.57231
G1 X31.582 Y54.601 E92.60857
G1 X32.216 Y54.247 E92.6448
M204 S5000
M205 X30 Y30
G0 F3600 X32.451 Y54.578
M204 S800
M205 X8 Y8
G1 F1800 X33.102 Y54.311 E92.6799
G1 X33.78 Y54.121 E92.71503
G1 X34.475 Y54.008 E92.75016
G1 X35.117 Y53.975 E92.78223
G1 X164.883 Y53.975 E99.25628
G1 X165.586 Y54.015 E99.29141
G1 X166.28 Y54.134 E99.32654
G1 X166.955 Y54.332 E99.36164
G1 X167.604 Y54.604 E99.39674
G1 X168.218 Y54.949 E99.43188
G1 X168.789 Y55.36 E99.46698
G1 X169.267 Y55.791 E99.49909
G1 X169.384 Y55.908 E99.50735
G1 X169.853 Y56.433 E99.54247
G1 X170.259 Y57.008 E99.57759
G1 X170.597 Y57.626 E99.61273
G1 X170.864 Y58.277 E99.64783
G1 X171.054 Y58.955 E99.68296
G1 X171.167 Y59.65 E99.71809
G1 X171.2 Y60.292 E99.75016
G1 X171.2 Y139.708 E103.71224
G1 X171.16 Y140.411 E103.74737
G1 X171.041 Y141.105 E103.7825
G1 X170.843 Y141.78 E103.81759
G1 X170.571 Y142.429 E103.8527
G1 X170.226 Y143.043 E103.88784
G1 X169.815 Y143.614 E103.92294
G1 X169.384 Y144.092 E103.95505
G1 X169.267 Y144.209 E103.9633
G1 X168.742 Y144.678 E103.99843
G1 X168.167 Y145.084 E104.03354
G1 X167.549 Y145.422 E104.06869
G1 X166.898 Y145.689 E104.10379
G1 X166.22 Y145.879 E104.13892
G1 X165.525 Y145.992 E104.17405
G1 X164.883 Y146.025 E104.20612
G1 X35.117 Y146.025 E110.68017
G1 X34.414 Y145.985 E110.7153
G1 X33.72 Y145.866 E110.75043
G1 X33.045 Y145.668 E110.78552
G1 X32.396 Y145.396 E110.82063
G1 X31.782 Y145.051 E110.85577
G1 X31.211 Y144.64 E110.89087
G1 X30.733 Y144.209 E110.92298
G1 X30.616 Y144.092 E110.93123
G1 X30.147 Y143.567 E110.96636
G1 X29.741 Y142.992 E111.00147
G1 X29.403 Y142.374 E111.03661
G1 X29.136 Y141.723 E111.07172
G1 X28.946 Y141.045 E111.10685
G1 X28.833 Y140.35 E111.14198
G1 X28.8 Y139.708 E111.17405
G1 X28.8 Y60.292 E115.13613
G1 X28.84 Y59.589 E115.17126
G1 X28.959 Y58.895 E115.20639
G1 X29.157 Y58.22 E115.24148
G1 X29.429 Y57.571 E115.27659
G1 X29.774 Y56.957 E115.31173
G1 X30.185 Y56.386 E115.34683
G1 X30.616 Y55.908 E115.37894
G1 X30.733 Y55.791 E115.38719
G1 X31.258 Y55.322 E115.42231
G1 X31.833 Y54.916 E115.45743
G1 X32.451 Y54.578 E115.49257
M204 S5000
M205 X30 Y30
G0 F3600 X32.683 Y54.91
M204 S800
M205 X8 Y8
G1 F1800 X33.317 Y54.661 E115.52655
G1 X33.976 Y54.488 E115.56055
G1 X34.65 Y54.394 E115.5945
G1 X35.117 Y54.375 E115.61782
G1 X164.883 Y54.375 E122.09187
G1 X165.563 Y54.415 E122.12585
G1 X166.233 Y54.534 E122.1598
G1 X166.885 Y54.731 E122.19378
G1 X167.509 Y55.003 E122.22774
G1 X168.097 Y55.347 E122.26173
G1 X168.641 Y55.757 E122.29571
G1 X168.984 Y56.074 E122.31902
G1 X169.101 Y56.191 E122.32727
G1 X169.554 Y56.7 E122.36127
G1 X169.943 Y57.258 E122.3952
G1 X170.265 Y57.858 E122.42917
G1 X170.514 Y58.492 E122.46316
G1 X170.687 Y59.151 E122.49715
G1 X170.781 Y59.825 E122.5311
G1 X170.8 Y60.292 E122.55442
G1 X170.8 Y139.708 E126.5165
G1 X170.76 Y140.388 E126.55048
G1 X170.641 Y141.058 E126.58443
G1 X170.444 Y141.71 E126.61841
G1 X170.172 Y142.334 E126.65237
G1 X169.828 Y142.922 E126.68636
G1 X169.418 Y143.466 E126.72034
G1 X169.101 Y143.809 E126.74365
G1 X168.984 Y143.926 E126.7519
G1 X168.475 Y144.379 E126.7859
G1 X167.917 Y144.768 E126.81983
G1 X167.317 Y145.09 E126.8538
G1 X166.683 Y145.339 E126.88779
G1 X166.024 Y145.512 E126.92178
G1 X165.35 Y145.606 E126.95573
G1 X164.883 Y145.625 E126.97905
G1 X35.117 Y145.625 E133.4531
G1 X34.437 Y145.585 E133.48708
G1 X33.767 Y145.466 E133.52103
G1 X33.115 Y145.269 E133.55501
G1 X32.491 Y144.997 E133.58897
G1 X31.903 Y144.653 E133.62296
G1 X31.359 Y144.243 E133.65695
G1 X31.016 Y143.926 E133.68025
G1 X30.899 Y143.809 E133.6885
G1 X30.446 Y143.3 E133.7225
G1 X30.057 Y142.742 E133.75643
G1 X29.735 Y142.142 E133.79041
G1 X29.486 Y141.508 E133.82439
G1 X29.313 Y140.849 E133.85838
G1 X29.219 Y140.175 E133.89233
G1 X29.2 Y139.708 E133.91565
G1 X29.2 Y60.292 E137.87773
G1 X29.24 Y59.612 E137.91171
G1 X29.359 Y58.942 E137.94566
G1 X29.556 Y58.29 E137.97964
G1 X29.828 Y57.666 E138.0136
G1 X30.172 Y57.078 E138.04759
G1 X30.582 Y56.534 E138.08158
G1 X30.899 Y56.191 E138.10488
G1 X31.016 Y56.074 E138.11313
G1 X31.525 Y55.621 E138.14713
G1 X32.083 Y55.232 E138.18106
G1 X32.683 Y54.91 E138.21504
M204 S5000
M205 X30 Y30
G0 F3600 X32.332 Y55.549
M204 S800
M205 X8 Y8
G1 F1800 X32.914 Y55.245 E138.24779
G1 X33.529 Y55.014 E138.28057
G1 X34.168 Y54.859 E138.31337
G1 X35.117 Y54.775 E138.36091
G1 X164.883 Y54.775 E144.83496
G1 X165.539 Y54.815 E144.86775
G1 X166.185 Y54.934 E144.90052
G1 X166.812 Y55.131 E144.93331
G1 X167.41 Y55.403 E144.96608
G1 X167.971 Y55.745 E144.99886
G1 X168.701 Y56.357 E145.04639
G1 X168.818 Y56.474 E145.05464
G1 X169.254 Y56.966 E145.08744
G1 X169.626 Y57.507 E145.12019
G1 X169.93 Y58.089 E145.15295
G1 X170.161 Y58.704 E145.18573
G1 X170.316 Y59.343 E145.21853
G1 X170.4 Y60.292 E145.26606
G1 X170.4 Y139.708 E149.22814
G1 X170.36 Y140.364 E149.26093
G1 X170.241 Y141.01 E149.2937
G1 X170.044 Y141.637 E149.32649
G1 X169.772 Y142.235 E149.35927
G1 X169.43 Y142.796 E149.39205
G1 X168.818 Y143.526 E149.43957
G1 X168.701 Y143.643 E149.44783
G1 X168.209 Y144.079 E149.48062
G1 X167.668 Y144.451 E149.51338
G1 X167.086 Y144.755 E149.54614
G1 X166.471 Y144.986 E149.57891
G1 X165.832 Y145.141 E149.61172
G1 X164.883 Y145.225 E149.65925
G1 X35.117 Y145.225 E156.1333
G1 X34.461 Y145.185 E156.16609
G1 X33.815 Y145.066 E156.19886
G1 X33.188 Y144.869 E156.23165
G1 X32.59 Y144.597 E156.26443
G1 X32.029 Y144.255 E156.29721
G1 X31.299 Y143.643 E156.34473
G1 X31.182 Y143.526 E156.35299
G1 X30.746 Y143.034 E156.38578
G1 X30.374 Y142.493 E156.41854
G1 X30.07 Y141.911 E156.4513
G1 X29.839 Y141.296 E156.48407
G1 X29.684 Y140.657 E156.51688
G1 X29.6 Y139.708 E156.56441
G1 X29.6 Y60.292 E160.52649
G1 X29.64 Y59.636 E160.55928
G1 X29.759 Y58.99 E160.59205
G1 X29.956 Y58.363 E160.62484
G1 X30.228 Y57.765 E160.65761
G1 X30.57 Y57.204 E160.69039
G1 X31.182 Y56.474 E160.73792
G1 X31.299 Y56.357 E160.74617
G1 X31.791 Y55.921 E160.77897
G1 X32.332 Y55.549 E160.81173
M204 S5000
M205 X30 Y30
G0 F3600 X32.579 Y55.867
M204 S800
M205 X8 Y8
G1 F1800 X33.143 Y55.581 E160.84327
G1 X33.738 Y55.369 E160.87479
G1 X34.356 Y55.233 E160.90636
G1 X35.117 Y55.175 E160.94443
G1 X164.883 Y55.175 E167.41849
G1 X165.514 Y55.215 E167.45003
G1 X166.135 Y55.334 E167.48157
G1 X166.735 Y55.531 E167.51308
G1 X167.307 Y55.802 E167.54466
G1 X167.839 Y56.142 E167.57616
G1 X168.419 Y56.639 E167.61427
G1 X168.536 Y56.756 E167.62252
G1 X168.953 Y57.231 E167.65405
G1 X169.308 Y57.754 E167.68559
G1 X169.594 Y58.318 E167.71714
G1 X169.806 Y58.913 E167.74865
G1 X169.942 Y59.531 E167.78022
G1 X170 Y60.292 E167.8183
G1 X170 Y139.708 E171.78038
G1 X169.96 Y140.339 E171.81192
G1 X169.841 Y140.96 E171.84347
G1 X169.644 Y141.56 E171.87497
G1 X169.373 Y142.132 E171.90655
G1 X169.033 Y142.664 E171.93805
G1 X168.536 Y143.244 E171.97616
G1 X168.419 Y143.361 E171.98441
G1 X167.944 Y143.778 E172.01595
G1 X167.421 Y144.133 E172.04748
G1 X166.857 Y144.419 E172.07903
G1 X166.262 Y144.631 E172.11054
G1 X165.644 Y144.767 E172.14211
G1 X164.883 Y144.825 E172.18019
G1 X35.117 Y144.825 E178.65424
G1 X34.486 Y144.785 E178.68579
G1 X33.865 Y144.666 E178.71733
