;FLAVOR:Marlin
;TIME:18379
;Filament used: 14.7024m
;Layer height: 0.2
;Generated with Cura_SteamEngine 3.6.0
M140 S60
M105
M190 S60
M104 S215
M105
M109 S215
M82 ;absolute extrusion mode
G21 ;metric values
 G90 ;absolute positioning
 M82 ;set extruder to absolute mode
 M107 ;start with the fan off
 G28 X0 Y0 ;move X/Y to min endstops
 G28 Z0 ;move Z to min endstops
 G1 Z15.0 F{travel_speed} ;move the platform down 15mm
 G92 E0 ;zero the extruded length
 G1 F200 E6 ;extrude 6 mm of feed stock
 G92 E0 ;zero the extruded length again
 G1 F{travel_speed} 
 ;Put printing message on LCD screen
 M117 Printing...
G92 E0
G1 F1500 E-0.25
;LAYER_COUNT:194
;LAYER:0
M107
M204 S5000
M205 X30 Y30
G0 F3600 X18.133 Y42.568 Z0.3
M204 S800
M205 X8 Y8
;TYPE:SKIRT
G1 F1500 E0
G1 X18.88 Y42.313 E0.03938
G1 X19.649 Y42.134 E0.07877
G1 X20.433 Y42.034 E0.1182
G1 X21.028 Y42.011 E0.14791
G1 X160.794 Y42.011 E7.12086
G1 X161.583 Y42.051 E7.16028
G1 X162.363 Y42.17 E7.19964
G1 X163.128 Y42.368 E7.23906
G1 X163.868 Y42.642 E7.27843
G1 X164.577 Y42.99 E7.31784
G1 X165.248 Y43.408 E7.35728
G1 X165.872 Y43.891 E7.39664
G1 X166.309 Y44.296 E7.42637
G1 X166.426 Y44.413 E7.43463
G1 X166.956 Y44.999 E7.47404
G1 X167.423 Y45.635 E7.51341
G1 X167.824 Y46.315 E7.55279
G1 X168.154 Y47.033 E7.59222
G1 X168.409 Y47.78 E7.6316
G1 X168.588 Y48.549 E7.67099
G1 X168.688 Y49.333 E7.71042
G1 X168.711 Y49.928 E7.74013
G1 X168.711 Y129.344 E11.70221
G1 X168.671 Y130.133 E11.74162
G1 X168.552 Y130.913 E11.78099
G1 X168.354 Y131.678 E11.82041
G1 X168.08 Y132.418 E11.85978
G1 X167.732 Y133.127 E11.89918
G1 X167.314 Y133.798 E11.93862
G1 X166.831 Y134.422 E11.97799
G1 X166.426 Y134.859 E12.00771
G1 X166.309 Y134.976 E12.01597
G1 X165.723 Y135.506 E12.05539
G1 X165.087 Y135.973 E12.09475
G1 X164.407 Y136.374 E12.13414
G1 X163.689 Y136.704 E12.17356
G1 X162.942 Y136.959 E12.21294
G1 X162.173 Y137.138 E12.25233
G1 X161.389 Y137.238 E12.29176
G1 X160.794 Y137.261 E12.32147
G1 X86.028 Y137.261 E16.05156
G1 X85.239 Y137.221 E16.09098
G1 X84.459 Y137.102 E16.13034
G1 X83.694 Y136.904 E16.16976
G1 X82.954 Y136.63 E16.20913
G1 X82.245 Y136.282 E16.24854
G1 X81.574 Y135.864 E16.28798
G1 X81.118 Y135.511 E16.31675
G1 X50.716 Y135.511 E17.83351
G1 X50.087 Y135.973 E17.87244
G1 X49.407 Y136.374 E17.91183
G1 X48.689 Y136.704 E17.95125
G1 X47.942 Y136.959 E17.99063
G1 X47.173 Y137.138 E18.03002
G1 X46.389 Y137.238 E18.06945
G1 X45.794 Y137.261 E18.09916
G1 X21.028 Y137.261 E19.33474
G1 X20.239 Y137.221 E19.37416
G1 X19.459 Y137.102 E19.41352
G1 X18.694 Y136.904 E19.45294
G1 X17.954 Y136.63 E19.49231
G1 X17.245 Y136.282 E19.53172
G1 X16.574 Y135.864 E19.57116
G1 X15.95 Y135.381 E19.61052
G1 X15.513 Y134.976 E19.64025
G1 X15.396 Y134.859 E19.6485
G1 X14.866 Y134.273 E19.68792
G1 X14.399 Y133.637 E19.72729
G1 X13.998 Y132.957 E19.76667
G1 X13.668 Y132.239 E19.8061
G1 X13.413 Y131.492 E19.84548
G1 X13.234 Y130.723 E19.88487
G1 X13.134 Y129.939 E19.9243
G1 X13.111 Y129.344 E19.95401
G1 X13.111 Y49.928 E23.91609
G1 X13.151 Y49.139 E23.9555
G1 X13.27 Y48.359 E23.99487
G1 X13.468 Y47.594 E24.03429
G1 X13.742 Y46.854 E24.07366
G1 X14.09 Y46.145 E24.11306
G1 X14.508 Y45.474 E24.1525
G1 X14.991 Y44.85 E24.19187
G1 X15.396 Y44.413 E24.22159
G1 X15.513 Y44.296 E24.22985
G1 X16.099 Y43.766 E24.26927
G1 X16.735 Y43.299 E24.30863
G1 X17.415 Y42.898 E24.34802
G1 X18.133 Y42.568 E24.38744
M204 S5000
M205 X30 Y30
G0 F3600 X18.356 Y42.91
M204 S800
M205 X8 Y8
G1 F1500 X19.087 Y42.67 E24.42583
G1 X19.838 Y42.507 E24.46417
G1 X20.603 Y42.423 E24.50256
G1 X21.028 Y42.411 E24.52377
G1 X160.794 Y42.411 E31.49673
G1 X161.562 Y42.451 E31.5351
G1 X162.322 Y42.57 E31.57347
G1 X163.065 Y42.768 E31.61184
G1 X163.784 Y43.042 E31.65022
G1 X164.47 Y43.389 E31.68858
G1 X165.117 Y43.805 E31.72695
G1 X165.717 Y44.286 E31.76532
G1 X166.027 Y44.578 E31.78657
G1 X166.144 Y44.695 E31.79482
G1 X166.658 Y45.267 E31.83319
G1 X167.111 Y45.889 E31.87158
G1 X167.497 Y46.554 E31.90994
G1 X167.812 Y47.256 E31.94832
G1 X168.052 Y47.987 E31.98671
G1 X168.215 Y48.738 E32.02505
G1 X168.299 Y49.503 E32.06344
G1 X168.311 Y49.928 E32.08466
G1 X168.311 Y129.344 E36.04674
G1 X168.271 Y130.112 E36.0851
G1 X168.152 Y130.872 E36.12348
G1 X167.954 Y131.615 E36.16185
G1 X167.68 Y132.334 E36.20023
G1 X167.333 Y133.02 E36.23859
G1 X166.917 Y133.667 E36.27696
G1 X166.436 Y134.267 E36.31533
G1 X166.144 Y134.577 E36.33657
G1 X166.027 Y134.694 E36.34483
G1 X165.455 Y135.208 E36.3832
G1 X164.833 Y135.661 E36.42158
G1 X164.168 Y136.047 E36.45995
G1 X163.466 Y136.362 E36.49833
G1 X162.735 Y136.602 E36.53672
G1 X161.984 Y136.765 E36.57506
G1 X161.219 Y136.849 E36.61345
G1 X160.794 Y136.861 E36.63467
G1 X86.028 Y136.861 E40.36476
G1 X85.26 Y136.821 E40.40312
G1 X84.5 Y136.702 E40.4415
G1 X83.757 Y136.504 E40.47986
G1 X83.038 Y136.23 E40.51825
G1 X82.352 Y135.883 E40.55661
G1 X81.705 Y135.467 E40.59498
G1 X81.261 Y135.111 E40.62337
G1 X50.563 Y135.111 E42.1549
G1 X50.455 Y135.208 E42.16215
G1 X49.833 Y135.661 E42.20053
G1 X49.168 Y136.047 E42.2389
G1 X48.466 Y136.362 E42.27728
G1 X47.735 Y136.602 E42.31567
G1 X46.984 Y136.765 E42.35401
G1 X46.219 Y136.849 E42.3924
G1 X45.794 Y136.861 E42.41362
G1 X21.028 Y136.861 E43.6492
G1 X20.26 Y136.821 E43.68756
G1 X19.5 Y136.702 E43.72594
G1 X18.757 Y136.504 E43.7643
G1 X18.038 Y136.23 E43.80269
G1 X17.352 Y135.883 E43.84105
G1 X16.705 Y135.467 E43.87942
G1 X16.105 Y134.986 E43.91779
G1 X15.795 Y134.694 E43.93903
G1 X15.678 Y134.577 E43.94729
G1 X15.164 Y134.005 E43.98565
G1 X14.711 Y133.383 E44.02404
G1 X14.325 Y132.718 E44.0624
G1 X14.01 Y132.016 E44.10079
G1 X13.77 Y131.285 E44.13918
G1 X13.607 Y130.534 E44.17752
G1 X13.523 Y129.769 E44.21591
G1 X13.511 Y129.344 E44.23712
G1 X13.511 Y49.928 E48.1992
G1 X13.551 Y49.16 E48.23757
G1 X13.67 Y48.4 E48.27595
G1 X13.868 Y47.657 E48.31431
G1 X14.142 Y46.938 E48.3527
G1 X14.489 Y46.252 E48.39105
G1 X14.905 Y45.605 E48.42943
G1 X15.386 Y45.005 E48.4678
G1 X15.678 Y44.695 E48.48904
G1 X15.795 Y44.578 E48.4973
G1 X16.367 Y44.064 E48.53566
G1 X16.989 Y43.611 E48.57405
G1 X17.654 Y43.225 E48.61241
G1 X18.356 Y42.91 E48.6508
M204 S5000
M205 X30 Y30
G0 F3600 X18.577 Y43.254
M204 S800
M205 X8 Y8
G1 F1500 X19.291 Y43.03 E48.68813
G1 X20.024 Y42.883 E48.72543
G1 X21.028 Y42.811 E48.77565
G1 X160.794 Y42.811 E55.7486
G1 X161.541 Y42.851 E55.78593
G1 X162.279 Y42.97 E55.82322
G1 X163.001 Y43.168 E55.86057
G1 X163.697 Y43.441 E55.89787
G1 X164.36 Y43.788 E55.9352
G1 X164.983 Y44.203 E55.97255
G1 X165.744 Y44.861 E56.02274
G1 X165.861 Y44.978 E56.031
G1 X166.361 Y45.535 E56.06834
G1 X166.798 Y46.141 E56.10561
G1 X167.169 Y46.791 E56.14295
G1 X167.468 Y47.477 E56.18029
G1 X167.692 Y48.191 E56.21762
G1 X167.839 Y48.924 E56.25492
G1 X167.911 Y49.928 E56.30514
G1 X167.911 Y129.344 E60.26722
G1 X167.871 Y130.091 E60.30454
G1 X167.752 Y130.829 E60.34183
G1 X167.554 Y131.551 E60.37918
G1 X167.281 Y132.247 E60.41648
G1 X166.934 Y132.91 E60.45382
G1 X166.519 Y133.533 E60.49116
G1 X165.861 Y134.294 E60.54135
G1 X165.744 Y134.411 E60.54961
G1 X165.187 Y134.911 E60.58695
G1 X164.581 Y135.348 E60.62422
G1 X163.931 Y135.719 E60.66156
G1 X163.245 Y136.018 E60.6989
G1 X162.531 Y136.242 E60.73623
G1 X161.798 Y136.389 E60.77353
G1 X160.794 Y136.461 E60.82375
G1 X86.028 Y136.461 E64.55384
G1 X85.281 Y136.421 E64.59116
G1 X84.543 Y136.302 E64.62845
G1 X83.821 Y136.104 E64.66581
G1 X83.125 Y135.831 E64.7031
G1 X82.462 Y135.484 E64.74044
G1 X81.839 Y135.069 E64.77778
G1 X81.425 Y134.711 E64.80509
G1 X50.41 Y134.711 E66.35243
G1 X50.187 Y134.911 E66.36738
G1 X49.581 Y135.348 E66.40465
G1 X48.931 Y135.719 E66.44199
G1 X48.245 Y136.018 E66.47933
G1 X47.531 Y136.242 E66.51666
G1 X46.798 Y136.389 E66.55396
G1 X45.794 Y136.461 E66.60418
G1 X21.028 Y136.461 E67.83976
G1 X20.281 Y136.421 E67.87708
G1 X19.543 Y136.302 E67.91437
G1 X18.821 Y136.104 E67.95172
G1 X18.125 Y135.831 E67.98902
G1 X17.462 Y135.484 E68.02636
G1 X16.839 Y135.069 E68.0637
G1 X16.078 Y134.411 E68.11389
G1 X15.961 Y134.294 E68.12215
G1 X15.461 Y133.737 E68.15949
G1 X15.024 Y133.131 E68.19677
G1 X14.653 Y132.481 E68.23411
G1 X14.354 Y131.795 E68.27144
G1 X14.13 Y131.081 E68.30877
G1 X13.983 Y130.348 E68.34607
G1 X13.911 Y129.344 E68.39629
G1 X13.911 Y49.928 E72.35837
G1 X13.951 Y49.181 E72.39569
G1 X14.07 Y48.443 E72.43299
G1 X14.268 Y47.721 E72.47034
G1 X14.541 Y47.025 E72.50764
G1 X14.888 Y46.362 E72.54497
G1 X15.303 Y45.739 E72.58232
G1 X15.961 Y44.978 E72.63251
G1 X16.078 Y44.861 E72.64076
G1 X16.635 Y44.361 E72.6781
G1 X17.241 Y43.924 E72.71538
G1 X17.891 Y43.553 E72.75272
G1 X18.577 Y43.254 E72.79005
M204 S5000
M205 X30 Y30
G0 F3600 X18.796 Y43.6
M204 S800
M205 X8 Y8
G1 F1500 X19.492 Y43.392 E72.82629
G1 X20.207 Y43.262 E72.86255
G1 X21.028 Y43.211 E72.90359
G1 X160.794 Y43.211 E79.87654
G1 X161.519 Y43.251 E79.91277
G1 X162.236 Y43.37 E79.94903
G1 X162.935 Y43.568 E79.98527
G1 X163.608 Y43.841 E80.02151
G1 X164.247 Y44.186 E80.05774
G1 X164.844 Y44.6 E80.09398
G1 X165.461 Y45.144 E80.13502
G1 X165.578 Y45.261 E80.14327
G1 X166.062 Y45.802 E80.17949
G1 X166.485 Y46.393 E80.21575
G1 X166.839 Y47.027 E80.25198
G1 X167.122 Y47.696 E80.28822
G1 X167.33 Y48.392 E80.32446
G1 X167.46 Y49.107 E80.36071
G1 X167.511 Y49.928 E80.40175
G1 X167.511 Y129.344 E84.36383
G1 X167.471 Y130.069 E84.40006
G1 X167.352 Y130.786 E84.43632
G1 X167.154 Y131.485 E84.47256
G1 X166.881 Y132.158 E84.5088
G1 X166.536 Y132.797 E84.54503
G1 X166.122 Y133.394 E84.58127
G1 X165.578 Y134.011 E84.62231
G1 X165.461 Y134.128 E84.63057
G1 X164.92 Y134.612 E84.66678
G1 X164.329 Y135.035 E84.70304
G1 X163.695 Y135.389 E84.73927
G1 X163.026 Y135.672 E84.77551
G1 X162.33 Y135.88 E84.81175
G1 X161.615 Y136.01 E84.84801
G1 X160.794 Y136.061 E84.88904
G1 X86.028 Y136.061 E88.61913
G1 X85.303 Y136.021 E88.65536
G1 X84.586 Y135.902 E88.69162
G1 X83.887 Y135.704 E88.72787
G1 X83.214 Y135.431 E88.7641
G1 X82.575 Y135.086 E88.80033
G1 X81.978 Y134.672 E88.83657
G1 X81.569 Y134.311 E88.86379
G1 X50.256 Y134.311 E90.426
G1 X49.92 Y134.612 E90.44851
G1 X49.329 Y135.035 E90.48477
G1 X48.695 Y135.389 E90.52099
G1 X48.026 Y135.672 E90.55723
G1 X47.33 Y135.88 E90.59348
G1 X46.615 Y136.01 E90.62973
G1 X45.794 Y136.061 E90.67077
G1 X21.028 Y136.061 E91.90635
G1 X20.303 Y136.021 E91.94258
G1 X19.586 Y135.902 E91.97884
G1 X18.887 Y135.704 E92.01508
G1 X18.214 Y135.431 E92.05132
G1 X17.575 Y135.086 E92.08755
G1 X16.978 Y134.672 E92.12379
G1 X16.361 Y134.128 E92.16483
G1 X16.244 Y134.011 E92.17308
G1 X15.76 Y133.47 E92.2093
G1 X15.337 Y132.879 E92.24556
G1 X14.983 Y132.245 E92.28179
G1 X14.7 Y131.576 E92.31803
G1 X14.492 Y130.88 E92.35427
G1 X14.362 Y130.165 E92.39052
G1 X14.311 Y129.344 E92.43156
G1 X14.311 Y49.928 E96.39364
G1 X14.351 Y49.203 E96.42987
G1 X14.47 Y48.486 E96.46613
G1 X14.668 Y47.787 E96.50237
G1 X14.941 Y47.114 E96.53861
G1 X15.286 Y46.475 E96.57484
G1 X15.7 Y45.878 E96.61108
G1 X16.244 Y45.261 E96.65212
G1 X16.361 Y45.144 E96.66038
G1 X16.902 Y44.66 E96.69659
G1 X17.493 Y44.237 E96.73285
G1 X18.127 Y43.883 E96.76908
G1 X18.796 Y43.6 E96.80532
M204 S5000
M205 X30 Y30
G0 F3600 X19.013 Y43.947
M204 S800
M205 X8 Y8
G1 F1500 X19.691 Y43.757 E96.84045
G1 X20.386 Y43.644 E96.87558
G1 X21.028 Y43.611 E96.90765
G1 X160.794 Y43.611 E103.8806
G1 X161.497 Y43.651 E103.91573
G1 X162.191 Y43.77 E103.95086
G1 X162.866 Y43.968 E103.98595
G1 X163.515 Y44.24 E104.02106
G1 X164.129 Y44.585 E104.0562
G1 X164.7 Y44.996 E104.0913
G1 X165.178 Y45.427 E104.12341
G1 X165.295 Y45.544 E104.13166
G1 X165.764 Y46.069 E104.16679
G1 X166.17 Y46.644 E104.2019
G1 X166.508 Y47.262 E104.23704
G1 X166.775 Y47.913 E104.27215
G1 X166.965 Y48.591 E104.30728
G1 X167.078 Y49.286 E104.34241
G1 X167.111 Y49.928 E104.37448
G1 X167.111 Y129.344 E108.33656
G1 X167.071 Y130.047 E108.37169
G1 X166.952 Y130.741 E108.40682
G1 X166.754 Y131.416 E108.44191
G1 X166.482 Y132.065 E108.47702
G1 X166.137 Y132.679 E108.51216
G1 X165.726 Y133.25 E108.54726
G1 X165.295 Y133.728 E108.57937
G1 X165.178 Y133.845 E108.58762
G1 X164.653 Y134.314 E108.62274
G1 X164.078 Y134.72 E108.65786
G1 X163.46 Y135.058 E108.693
G1 X162.809 Y135.325 E108.72811
G1 X162.131 Y135.515 E108.76324
G1 X161.436 Y135.628 E108.79836
G1 X160.794 Y135.661 E108.83044
G1 X86.028 Y135.661 E112.56053
G1 X85.325 Y135.621 E112.59566
G1 X84.631 Y135.502 E112.63079
G1 X83.956 Y135.304 E112.66588
G1 X83.307 Y135.032 E112.70099
G1 X82.693 Y134.687 E112.73612
G1 X82.122 Y134.276 E112.77122
G1 X81.717 Y133.911 E112.79842
G1 X50.104 Y133.911 E114.3756
G1 X49.653 Y134.314 E114.40578
G1 X49.078 Y134.72 E114.4409
G1 X48.46 Y135.058 E114.47604
G1 X47.809 Y135.325 E114.51114
G1 X47.131 Y135.515 E114.54627
G1 X46.436 Y135.628 E114.5814
G1 X45.794 Y135.661 E114.61347
G1 X21.028 Y135.661 E115.84905
G1 X20.325 Y135.621 E115.88418
G1 X19.631 Y135.502 E115.91931
G1 X18.956 Y135.304 E115.95441
G1 X18.307 Y135.032 E115.98951
G1 X17.693 Y134.687 E116.02465
G1 X17.122 Y134.276 E116.05975
G1 X16.644 Y133.845 E116.09186
G1 X16.527 Y133.728 E116.10012
G1 X16.058 Y133.203 E116.13524
G1 X15.652 Y132.628 E116.17035
G1 X15.314 Y132.01 E116.2055
G1 X15.047 Y131.359 E116.2406
G1 X14.857 Y130.681 E116.27573
G1 X14.744 Y129.986 E116.31086
G1 X14.711 Y129.344 E116.34293
G1 X14.711 Y49.928 E120.30501
G1 X14.751 Y49.225 E120.34014
G1 X14.87 Y48.531 E120.37527
G1 X15.068 Y47.856 E120.41036
G1 X15.34 Y47.207 E120.44547
G1 X15.685 Y46.593 E120.48061
G1 X16.096 Y46.022 E120.51571
G1 X16.527 Y45.544 E120.54782
G1 X16.644 Y45.427 E120.55607
G1 X17.169 Y44.958 E120.59119
G1 X17.744 Y44.552 E120.62631
G1 X18.362 Y44.214 E120.66145
G1 X19.013 Y43.947 E120.69656
M204 S5000
M205 X30 Y30
G0 F3600 X18.594 Y44.546
M204 S800
M205 X8 Y8
G1 F1500 X19.228 Y44.297 E120.73054
G1 X19.887 Y44.124 E120.76453
G1 X20.561 Y44.03 E120.79848
G1 X21.028 Y44.011 E120.8218
G1 X160.794 Y44.011 E127.79476
G1 X161.474 Y44.051 E127.82874
G1 X162.144 Y44.17 E127.86269
G1 X162.796 Y44.367 E127.89667
G1 X163.42 Y44.639 E127.93063
G1 X164.008 Y44.983 E127.96462
G1 X164.552 Y45.393 E127.9986
G1 X164.895 Y45.71 E128.0219
G1 X165.012 Y45.827 E128.03016
G1 X165.465 Y46.336 E128.06415
G1 X165.854 Y46.894 E128.09809
G1 X166.176 Y47.494 E128.13206
G1 X166.425 Y48.128 E128.16604
G1 X166.598 Y48.787 E128.20004
G1 X166.692 Y49.461 E128.23399
G1 X166.711 Y49.928 E128.25731
G1 X166.711 Y129.344 E132.21939
G1 X166.671 Y130.024 E132.25337
G1 X166.552 Y130.694 E132.28732
G1 X166.355 Y131.346 E132.3213
G1 X166.083 Y131.97 E132.35526
G1 X165.739 Y132.558 E132.38925
G1 X165.329 Y133.102 E132.42323
G1 X165.012 Y133.445 E132.44653
G1 X164.895 Y133.562 E132.45479
G1 X164.386 Y134.015 E132.48878
G1 X163.828 Y134.404 E132.52272
G1 X163.228 Y134.726 E132.55669
G1 X162.594 Y134.975 E132.59067
G1 X161.935 Y135.148 E132.62467
G1 X161.261 Y135.242 E132.65862
G1 X160.794 Y135.261 E132.68194
G1 X86.028 Y135.261 E136.41203
G1 X85.348 Y135.221 E136.44601
G1 X84.678 Y135.102 E136.47996
G1 X84.026 Y134.905 E136.51394
G1 X83.402 Y134.633 E136.5479
G1 X82.814 Y134.289 E136.58189
G1 X82.27 Y133.879 E136.61587
G1 X81.927 Y133.562 E136.63917
G1 X81.876 Y133.511 E136.64277
G1 X49.946 Y133.511 E138.23577
G1 X49.895 Y133.562 E138.23937
G1 X49.386 Y134.015 E138.27336
G1 X48.828 Y134.404 E138.3073
G1 X48.228 Y134.726 E138.34127
G1 X47.594 Y134.975 E138.37525
G1 X46.935 Y135.148 E138.40924
G1 X46.261 Y135.242 E138.44319
G1 X45.794 Y135.261 E138.46651
G1 X21.028 Y135.261 E139.70209
G1 X20.348 Y135.221 E139.73608
G1 X19.678 Y135.102 E139.77003
G1 X19.026 Y134.905 E139.80401
G1 X18.402 Y134.633 E139.83797
G1 X17.814 Y134.289 E139.87195
G1 X17.27 Y133.879 E139.90594
G1 X16.927 Y133.562 E139.92924
G1 X16.81 Y133.445 E139.9375
G1 X16.357 Y132.936 E139.97149
G1 X15.968 Y132.378 E140.00543
G1 X15.646 Y131.778 E140.0394
G1 X15.397 Y131.144 E140.07338
G1 X15.224 Y130.485 E140.10737
G1 X15.13 Y129.811 E140.14132
G1 X15.111 Y129.344 E140.16464
G1 X15.111 Y49.928 E144.12672
G1 X15.151 Y49.248 E144.16071
G1 X15.27 Y48.578 E144.19466
G1 X15.467 Y47.926 E144.22864
G1 X15.739 Y47.302 E144.2626
G1 X16.083 Y46.714 E144.29658
G1 X16.493 Y46.17 E144.33057
G1 X16.81 Y45.827 E144.35387
