;FLAVOR:Marlin
;TIME:13093
;Filament used: 13.8482m
;Layer height: 0.2
;Generated with Cura_SteamEngine 3.6.0
M140 S60
M105
M190 S60
M104 S215
M105
M109 S215
M82 ;absolute extrusion mode
G21 ;metric values
 G90 ;absolute positioning
 M82 ;set extruder to absolute mode
 M107 ;start with the fan off
 G28 X0 Y0 ;move X/Y to min endstops
 G28 Z0 ;move Z to min endstops
 G1 Z15.0 F{travel_speed} ;move the platform down 15mm
 G92 E0 ;zero the extruded length
 G1 F200 E6 ;extrude 6 mm of feed stock
 G92 E0 ;zero the extruded length again
 G1 F{travel_speed} 
 ;Put printing message on LCD screen
 M117 Printing...
G92 E0
G1 F1500 E-6.5
;LAYER_COUNT:127
;LAYER:0
M107
G0 F2400 X61.673 Y15.276 Z0.3
;TYPE:SKIRT
G1 F1500 E0
G1 F1350 X61.871 Y14.511 E0.04218
G1 X62.145 Y13.771 E0.08431
G1 X62.493 Y13.062 E0.12647
G1 X62.911 Y12.391 E0.16867
G1 X63.394 Y11.767 E0.21079
G1 X63.937 Y11.194 E0.25294
G1 X64.536 Y10.679 E0.2951
G1 X65.184 Y10.228 E0.33725
G1 X65.875 Y9.844 E0.37945
G1 X66.6 Y9.532 E0.42158
G1 X67.353 Y9.295 E0.46373
G1 X68.127 Y9.136 E0.50591
G1 X68.912 Y9.055 E0.54803
G1 X69.314 Y9.045 E0.5695
G1 X87.617 Y9.045 E1.54656
G1 X87.954 Y8.9 E1.56615
G1 X88.707 Y8.663 E1.60829
G1 X89.481 Y8.504 E1.65047
G1 X90.266 Y8.423 E1.69259
G1 X90.668 Y8.413 E1.71406
G1 X109.605 Y8.413 E2.72497
G1 X110.394 Y8.453 E2.76714
G1 X111.174 Y8.572 E2.80926
G1 X111.939 Y8.77 E2.85144
G1 X112.679 Y9.044 E2.89357
G1 X113.388 Y9.392 E2.93573
G1 X114.059 Y9.81 E2.97793
G1 X114.683 Y10.293 E3.02005
G1 X115.256 Y10.836 E3.06219
G1 X115.771 Y11.435 E3.10436
G1 X116.222 Y12.083 E3.14651
G1 X116.606 Y12.774 E3.18871
G1 X116.918 Y13.499 E3.23084
G1 X117.155 Y14.252 E3.27298
G1 X117.314 Y15.026 E3.31517
G1 X117.395 Y15.811 E3.35729
G1 X117.405 Y16.213 E3.37876
G1 X117.405 Y141.919 E10.08926
G1 X117.427 Y142.026 E10.09509
G1 X117.508 Y142.811 E10.13722
G1 X117.518 Y143.213 E10.15869
G1 X117.518 Y181.313 E12.19256
G1 X117.478 Y182.102 E12.23473
G1 X117.359 Y182.882 E12.27685
G1 X117.161 Y183.647 E12.31904
G1 X116.887 Y184.387 E12.36116
G1 X116.539 Y185.096 E12.40332
G1 X116.121 Y185.767 E12.44553
G1 X115.638 Y186.391 E12.48765
G1 X115.095 Y186.964 E12.52979
G1 X114.496 Y187.479 E12.57196
G1 X113.848 Y187.93 E12.6141
G1 X113.157 Y188.314 E12.65631
G1 X112.432 Y188.626 E12.69844
G1 X111.679 Y188.863 E12.74058
G1 X110.905 Y189.022 E12.78276
G1 X110.12 Y189.103 E12.82489
G1 X109.718 Y189.113 E12.84636
G1 X103.377 Y189.113 E13.18485
G1 X102.588 Y189.073 E13.22703
G1 X101.808 Y188.954 E13.26915
G1 X101.043 Y188.756 E13.31133
G1 X100.303 Y188.482 E13.35345
G1 X99.594 Y188.134 E13.39562
G1 X98.923 Y187.716 E13.43782
G1 X98.299 Y187.233 E13.47994
G1 X97.726 Y186.69 E13.52208
G1 X97.211 Y186.091 E13.56425
G1 X96.76 Y185.443 E13.6064
G1 X96.376 Y184.752 E13.6486
G1 X96.064 Y184.027 E13.69073
G1 X95.827 Y183.274 E13.73287
G1 X95.668 Y182.5 E13.77505
G1 X95.587 Y181.715 E13.81718
G1 X95.577 Y181.313 E13.83865
G1 X95.577 Y157.354 E15.11764
G1 X91.302 Y157.354 E15.34585
G1 X90.965 Y157.499 E15.36543
G1 X90.212 Y157.736 E15.40757
G1 X89.438 Y157.895 E15.44976
G1 X88.653 Y157.976 E15.49188
G1 X88.251 Y157.986 E15.51335
G1 X83.343 Y157.986 E15.77535
G1 X83.343 Y181.945 E17.05434
G1 X83.303 Y182.734 E17.09652
G1 X83.184 Y183.514 E17.13864
G1 X82.986 Y184.279 E17.18082
G1 X82.712 Y185.019 E17.22294
G1 X82.364 Y185.728 E17.2651
G1 X81.946 Y186.399 E17.30731
G1 X81.463 Y187.023 E17.34943
G1 X80.92 Y187.596 E17.39157
G1 X80.321 Y188.111 E17.43374
G1 X79.673 Y188.562 E17.47589
G1 X78.982 Y188.946 E17.51809
G1 X78.257 Y189.258 E17.56022
G1 X77.504 Y189.495 E17.60236
G1 X76.73 Y189.654 E17.64454
G1 X75.945 Y189.735 E17.68667
G1 X75.543 Y189.745 E17.70814
G1 X69.201 Y189.745 E18.04669
G1 X68.412 Y189.705 E18.08886
G1 X67.632 Y189.586 E18.13098
G1 X66.867 Y189.388 E18.17316
G1 X66.127 Y189.114 E18.21529
G1 X65.418 Y188.766 E18.25745
G1 X64.747 Y188.348 E18.29965
G1 X64.123 Y187.865 E18.34178
G1 X63.55 Y187.322 E18.38392
G1 X63.035 Y186.723 E18.42609
G1 X62.584 Y186.075 E18.46823
G1 X62.2 Y185.384 E18.51043
G1 X61.888 Y184.659 E18.55257
G1 X61.651 Y183.906 E18.59471
G1 X61.492 Y183.132 E18.63689
G1 X61.411 Y182.347 E18.67902
G1 X61.401 Y181.945 E18.70048
G1 X61.401 Y143.845 E20.73436
G1 X61.441 Y143.056 E20.77653
G1 X61.514 Y142.578 E20.80234
G1 X61.514 Y16.845 E27.51429
G1 X61.554 Y16.056 E27.55646
G1 X61.673 Y15.276 E27.59858
G0 F2400 X62.073 Y15.317
G1 F1350 X62.271 Y14.574 E27.63963
G1 X62.545 Y13.855 E27.6807
G1 X62.892 Y13.169 E27.72174
G1 X63.308 Y12.522 E27.7628
G1 X63.789 Y11.922 E27.80385
G1 X64.33 Y11.375 E27.84492
G1 X64.925 Y10.887 E27.886
G1 X65.567 Y10.464 E27.92704
G1 X66.25 Y10.109 E27.96813
G1 X66.965 Y9.828 E28.00914
G1 X67.707 Y9.622 E28.05025
G1 X68.465 Y9.494 E28.09129
G1 X69.314 Y9.445 E28.13669
G1 X87.685 Y9.445 E29.11738
G1 X88.319 Y9.196 E29.15374
G1 X89.061 Y8.99 E29.19485
G1 X89.819 Y8.862 E29.23588
G1 X90.668 Y8.813 E29.28128
G1 X109.605 Y8.813 E30.29218
G1 X110.373 Y8.853 E30.33324
G1 X111.133 Y8.972 E30.3743
G1 X111.876 Y9.17 E30.41535
G1 X112.595 Y9.444 E30.45642
G1 X113.281 Y9.791 E30.49746
G1 X113.928 Y10.207 E30.53853
G1 X114.528 Y10.688 E30.57958
G1 X115.075 Y11.229 E30.62065
G1 X115.563 Y11.824 E30.66173
G1 X115.986 Y12.466 E30.70277
G1 X116.341 Y13.149 E30.74386
G1 X116.622 Y13.864 E30.78487
G1 X116.828 Y14.606 E30.82598
G1 X116.956 Y15.364 E30.86701
G1 X117.005 Y16.213 E30.91241
G1 X117.005 Y141.985 E37.62644
G1 X117.069 Y142.364 E37.64695
G1 X117.118 Y143.213 E37.69235
G1 X117.118 Y181.313 E39.72623
G1 X117.078 Y182.081 E39.76728
G1 X116.959 Y182.841 E39.80834
G1 X116.761 Y183.584 E39.84939
G1 X116.487 Y184.303 E39.89047
G1 X116.14 Y184.989 E39.93151
G1 X115.724 Y185.636 E39.97257
G1 X115.243 Y186.236 E40.01362
G1 X114.702 Y186.783 E40.05469
G1 X114.107 Y187.271 E40.09577
G1 X113.465 Y187.694 E40.13681
G1 X112.782 Y188.049 E40.1779
G1 X112.067 Y188.33 E40.21891
G1 X111.325 Y188.536 E40.26002
G1 X110.567 Y188.664 E40.30105
G1 X109.718 Y188.713 E40.34645
G1 X103.377 Y188.713 E40.68495
G1 X102.609 Y188.673 E40.726
G1 X101.849 Y188.554 E40.76707
G1 X101.106 Y188.356 E40.80812
G1 X100.387 Y188.082 E40.84919
G1 X99.701 Y187.735 E40.89023
G1 X99.054 Y187.319 E40.93129
G1 X98.454 Y186.838 E40.97234
G1 X97.907 Y186.297 E41.01341
G1 X97.419 Y185.702 E41.05449
G1 X96.996 Y185.06 E41.09553
G1 X96.641 Y184.377 E41.13662
G1 X96.36 Y183.662 E41.17763
G1 X96.154 Y182.92 E41.21874
G1 X96.026 Y182.162 E41.25978
G1 X95.977 Y181.313 E41.30518
G1 X95.977 Y156.954 E42.60552
G1 X91.234 Y156.954 E42.85871
G1 X90.6 Y157.203 E42.89508
G1 X89.858 Y157.409 E42.93618
G1 X89.1 Y157.537 E42.97722
G1 X88.251 Y157.586 E43.02262
G1 X82.943 Y157.586 E43.30597
G1 X82.943 Y181.945 E44.60632
G1 X82.903 Y182.713 E44.64737
G1 X82.784 Y183.473 E44.68844
G1 X82.586 Y184.216 E44.72948
G1 X82.312 Y184.935 E44.77056
G1 X81.965 Y185.621 E44.8116
G1 X81.549 Y186.268 E44.85266
G1 X81.068 Y186.868 E44.89371
G1 X80.527 Y187.415 E44.93478
G1 X79.932 Y187.903 E44.97586
G1 X79.29 Y188.326 E45.0169
G1 X78.607 Y188.681 E45.05799
G1 X77.892 Y188.962 E45.099
G1 X77.15 Y189.168 E45.14011
G1 X76.392 Y189.296 E45.18115
G1 X75.543 Y189.345 E45.22654
G1 X69.201 Y189.345 E45.56509
G1 X68.433 Y189.305 E45.60615
G1 X67.673 Y189.186 E45.64721
G1 X66.93 Y188.988 E45.68826
G1 X66.211 Y188.714 E45.72934
G1 X65.525 Y188.367 E45.77037
G1 X64.878 Y187.951 E45.81144
G1 X64.278 Y187.47 E45.85249
G1 X63.731 Y186.929 E45.89356
G1 X63.243 Y186.334 E45.93464
G1 X62.82 Y185.692 E45.97568
G1 X62.465 Y185.009 E46.01677
G1 X62.184 Y184.294 E46.05778
G1 X61.978 Y183.552 E46.09889
G1 X61.85 Y182.794 E46.13992
G1 X61.801 Y181.945 E46.18532
G1 X61.801 Y143.845 E48.21919
G1 X61.841 Y143.077 E48.26025
G1 X61.914 Y142.611 E48.28543
G1 X61.914 Y16.845 E54.99913
G1 X61.954 Y16.077 E55.04019
G1 X62.073 Y15.317 E55.08125
G0 F2400 X62.473 Y15.36
G1 F1350 X62.671 Y14.638 E55.12122
G1 X62.944 Y13.942 E55.16113
G1 X63.291 Y13.279 E55.20107
G1 X63.706 Y12.656 E55.24103
G1 X64.185 Y12.082 E55.28094
G1 X64.722 Y11.561 E55.32089
G1 X65.312 Y11.102 E55.36079
G1 X65.948 Y10.707 E55.40076
G1 X66.622 Y10.383 E55.44068
G1 X67.327 Y10.133 E55.48061
G1 X68.055 Y9.959 E55.52056
G1 X68.797 Y9.864 E55.5605
G1 X69.314 Y9.845 E55.58812
G1 X87.78 Y9.845 E56.57388
G1 X87.976 Y9.751 E56.58548
G1 X88.681 Y9.501 E56.62541
G1 X89.409 Y9.327 E56.66537
G1 X90.151 Y9.232 E56.7053
G1 X90.668 Y9.213 E56.73292
G1 X109.605 Y9.213 E57.74382
G1 X110.352 Y9.253 E57.78376
G1 X111.09 Y9.372 E57.82366
G1 X111.812 Y9.57 E57.86363
G1 X112.508 Y9.843 E57.90354
G1 X113.171 Y10.19 E57.94349
G1 X113.794 Y10.605 E57.98345
G1 X114.368 Y11.084 E58.02336
G1 X114.889 Y11.621 E58.0633
G1 X115.348 Y12.211 E58.1032
G1 X115.743 Y12.847 E58.14317
G1 X116.067 Y13.521 E58.18309
G1 X116.317 Y14.226 E58.22302
G1 X116.491 Y14.954 E58.26298
G1 X116.586 Y15.696 E58.30291
G1 X116.605 Y16.213 E58.33053
G1 X116.605 Y141.962 E65.04332
G1 X116.699 Y142.696 E65.08283
G1 X116.718 Y143.213 E65.11044
G1 X116.718 Y181.313 E67.14432
G1 X116.678 Y182.06 E67.18425
G1 X116.559 Y182.798 E67.22416
G1 X116.361 Y183.52 E67.26412
G1 X116.088 Y184.216 E67.30403
G1 X115.741 Y184.879 E67.34398
G1 X115.326 Y185.502 E67.38394
G1 X114.847 Y186.076 E67.42385
G1 X114.31 Y186.597 E67.46379
G1 X113.72 Y187.056 E67.5037
G1 X113.084 Y187.451 E67.54366
G1 X112.41 Y187.775 E67.58358
G1 X111.705 Y188.025 E67.62351
G1 X110.977 Y188.199 E67.66347
G1 X110.235 Y188.294 E67.7034
G1 X109.718 Y188.313 E67.73102
G1 X103.377 Y188.313 E68.06952
G1 X102.63 Y188.273 E68.10945
G1 X101.892 Y188.154 E68.14936
G1 X101.17 Y187.956 E68.18932
G1 X100.474 Y187.683 E68.22923
G1 X99.811 Y187.336 E68.26918
G1 X99.188 Y186.921 E68.30914
G1 X98.614 Y186.442 E68.34905
G1 X98.093 Y185.905 E68.38899
G1 X97.634 Y185.315 E68.4289
G1 X97.239 Y184.679 E68.46886
G1 X96.915 Y184.005 E68.50878
G1 X96.665 Y183.3 E68.54871
G1 X96.491 Y182.572 E68.58867
G1 X96.396 Y181.83 E68.6286
G1 X96.377 Y181.313 E68.65622
G1 X96.377 Y156.554 E69.97792
G1 X91.139 Y156.554 E70.25754
G1 X90.943 Y156.648 E70.26914
G1 X90.238 Y156.898 E70.30907
G1 X89.51 Y157.072 E70.34903
G1 X88.768 Y157.167 E70.38896
G1 X88.251 Y157.186 E70.41658
G1 X82.543 Y157.186 E70.72129
G1 X82.543 Y181.945 E72.04299
G1 X82.503 Y182.692 E72.08292
G1 X82.384 Y183.43 E72.12282
G1 X82.186 Y184.152 E72.16279
G1 X81.913 Y184.848 E72.2027
G1 X81.566 Y185.511 E72.24265
G1 X81.151 Y186.134 E72.28261
G1 X80.672 Y186.708 E72.32252
G1 X80.135 Y187.229 E72.36246
G1 X79.545 Y187.688 E72.40236
G1 X78.909 Y188.083 E72.44233
G1 X78.235 Y188.407 E72.48225
G1 X77.53 Y188.657 E72.52218
G1 X76.802 Y188.831 E72.56214
G1 X76.06 Y188.926 E72.60207
G1 X75.543 Y188.945 E72.62969
G1 X69.201 Y188.945 E72.96824
G1 X68.454 Y188.905 E73.00817
G1 X67.716 Y188.786 E73.04808
G1 X66.994 Y188.588 E73.08804
G1 X66.298 Y188.315 E73.12795
G1 X65.635 Y187.968 E73.1679
G1 X65.012 Y187.553 E73.20786
G1 X64.438 Y187.074 E73.24777
G1 X63.917 Y186.537 E73.28771
G1 X63.458 Y185.947 E73.32762
G1 X63.063 Y185.311 E73.36758
G1 X62.739 Y184.637 E73.4075
G1 X62.489 Y183.932 E73.44743
G1 X62.315 Y183.204 E73.48739
G1 X62.22 Y182.462 E73.52732
G1 X62.201 Y181.945 E73.55494
G1 X62.201 Y143.845 E75.58882
G1 X62.241 Y143.098 E75.62875
G1 X62.314 Y142.645 E75.65324
G1 X62.314 Y16.845 E82.36876
G1 X62.354 Y16.098 E82.4087
G1 X62.473 Y15.36 E82.4486
G0 F2400 X62.873 Y15.403
G1 F1350 X63.071 Y14.704 E82.48739
G1 X63.344 Y14.031 E82.52616
G1 X63.689 Y13.392 E82.56492
G1 X64.103 Y12.795 E82.6037
G1 X64.579 Y12.247 E82.64245
G1 X65.113 Y11.754 E82.68125
G1 X65.698 Y11.324 E82.72001
G1 X66.327 Y10.96 E82.7588
G1 X66.992 Y10.667 E82.79759
G1 X67.685 Y10.449 E82.83638
G1 X68.397 Y10.309 E82.87511
G1 X69.314 Y10.245 E82.92418
G1 X87.869 Y10.245 E83.9147
G1 X88.346 Y10.035 E83.94252
G1 X89.039 Y9.817 E83.9813
G1 X89.751 Y9.677 E84.02003
G1 X90.668 Y9.613 E84.06911
G1 X109.605 Y9.613 E85.08001
G1 X110.33 Y9.653 E85.11877
G1 X111.047 Y9.772 E85.15757
G1 X111.746 Y9.97 E85.19635
G1 X112.419 Y10.243 E85.23512
G1 X113.058 Y10.588 E85.27389
G1 X113.655 Y11.002 E85.31267
G1 X114.203 Y11.478 E85.35142
G1 X114.696 Y12.012 E85.39022
G1 X115.126 Y12.597 E85.42897
G1 X115.49 Y13.226 E85.46777
G1 X115.783 Y13.891 E85.50656
G1 X116.001 Y14.584 E85.54534
G1 X116.141 Y15.296 E85.58408
G1 X116.205 Y16.213 E85.63315
G1 X116.205 Y142.047 E92.35048
G1 X116.254 Y142.296 E92.36403
G1 X116.318 Y143.213 E92.4131
G1 X116.318 Y181.313 E94.44698
G1 X116.278 Y182.038 E94.48574
G1 X116.159 Y182.755 E94.52454
G1 X115.961 Y183.454 E94.56332
G1 X115.688 Y184.127 E94.60209
G1 X115.343 Y184.766 E94.64085
G1 X114.929 Y185.363 E94.67964
G1 X114.453 Y185.911 E94.71839
G1 X113.919 Y186.404 E94.75718
G1 X113.334 Y186.834 E94.79594
G1 X112.705 Y187.198 E94.83474
G1 X112.04 Y187.491 E94.87353
G1 X111.347 Y187.709 E94.91231
G1 X110.635 Y187.849 E94.95105
G1 X109.718 Y187.913 E95.00012
G1 X103.377 Y187.913 E95.33861
G1 X102.652 Y187.873 E95.37738
G1 X101.935 Y187.754 E95.41617
G1 X101.236 Y187.556 E95.45496
G1 X100.563 Y187.283 E95.49373
G1 X99.924 Y186.938 E95.53249
G1 X99.327 Y186.524 E95.57127
G1 X98.779 Y186.048 E95.61002
G1 X98.286 Y185.514 E95.64882
G1 X97.856 Y184.929 E95.68758
G1 X97.492 Y184.3 E95.72637
G1 X97.199 Y183.635 E95.76517
G1 X96.981 Y182.942 E95.80395
G1 X96.841 Y182.23 E95.84268
G1 X96.777 Y181.313 E95.89175
G1 X96.777 Y156.154 E97.2348
G1 X91.05 Y156.154 E97.54053
G1 X90.573 Y156.364 E97.56835
G1 X89.88 Y156.582 E97.60713
G1 X89.168 Y156.722 E97.64587
G1 X88.251 Y156.786 E97.69494
G1 X82.143 Y156.786 E98.021
G1 X82.143 Y181.945 E99.36405
G1 X82.103 Y182.67 E99.40281
G1 X81.984 Y183.387 E99.44161
G1 X81.786 Y184.086 E99.48039
G1 X81.513 Y184.759 E99.51916
G1 X81.168 Y185.398 E99.55793
G1 X80.754 Y185.995 E99.59671
G1 X80.278 Y186.543 E99.63546
G1 X79.744 Y187.036 E99.67425
G1 X79.159 Y187.466 E99.71301
G1 X78.53 Y187.83 E99.75181
G1 X77.865 Y188.123 E99.7906
G1 X77.172 Y188.341 E99.82938
G1 X76.46 Y188.481 E99.86812
G1 X75.543 Y188.545 E99.91719
G1 X69.201 Y188.545 E100.25574
G1 X68.476 Y188.505 E100.2945
G1 X67.759 Y188.386 E100.3333
G1 X67.06 Y188.188 E100.37208
G1 X66.387 Y187.915 E100.41085
G1 X65.748 Y187.57 E100.44962
G1 X65.151 Y187.156 E100.4884
G1 X64.603 Y186.68 E100.52715
G1 X64.11 Y186.146 E100.56594
G1 X63.68 Y185.561 E100.6047
G1 X63.316 Y184.932 E100.6435
G1 X63.023 Y184.267 E100.68229
G1 X62.805 Y183.574 E100.72107
G1 X62.665 Y182.862 E100.75981
G1 X62.601 Y181.945 E100.80888
G1 X62.601 Y143.845 E102.84275
G1 X62.641 Y143.12 E102.88151
G1 X62.714 Y142.68 E102.90532
G1 X62.714 Y16.845 E109.62271
G1 X62.754 Y16.12 E109.66147
G1 X62.873 Y15.403 E109.70027
G0 F2400 X63.273 Y15.448
G1 F1350 X63.471 Y14.773 E109.73782
G1 X63.743 Y14.124 E109.77539
G1 X64.088 Y13.51 E109.81298
G1 X64.499 Y12.939 E109.85054
G1 X64.973 Y12.418 E109.88814
G1 X65.503 Y11.954 E109.92574
G1 X66.082 Y11.554 E109.96331
G1 X66.703 Y11.222 E110.0009
G1 X67.357 Y10.962 E110.03847
G1 X68.037 Y10.778 E110.07608
G1 X68.733 Y10.672 E110.11366
G1 X69.314 Y10.645 E110.14471
G1 X87.954 Y10.645 E111.13976
G1 X88.057 Y10.59 E111.14599
G1 X88.711 Y10.33 E111.18356
G1 X89.391 Y10.146 E111.22117
G1 X90.087 Y10.04 E111.25875
G1 X90.668 Y10.013 E111.2898
G1 X109.605 Y10.013 E112.3007
G1 X110.308 Y10.053 E112.33829
G1 X111.002 Y10.172 E112.37588
G1 X111.677 Y10.37 E112.41343
G1 X112.326 Y10.642 E112.451
G1 X112.94 Y10.987 E112.48859
G1 X113.511 Y11.398 E112.52615
G1 X114.032 Y11.872 E112.56375
G1 X114.496 Y12.402 E112.60135
G1 X114.896 Y12.981 E112.63892
G1 X115.228 Y13.602 E112.67651
G1 X115.488 Y14.256 E112.71408
G1 X115.672 Y14.936 E112.75169
G1 X115.778 Y15.632 E112.78927
G1 X115.805 Y16.213 E112.82032
G1 X115.805 Y142.067 E119.53872
G1 X115.891 Y142.632 E119.56923
G1 X115.918 Y143.213 E119.60028
G1 X115.918 Y181.313 E121.63415
G1 X115.878 Y182.016 E121.67174
G1 X115.759 Y182.71 E121.70933
G1 X115.561 Y183.385 E121.74688
G1 X115.289 Y184.034 E121.78445
G1 X114.944 Y184.648 E121.82204
G1 X114.533 Y185.219 E121.8596
G1 X114.059 Y185.74 E121.8972
G1 X113.529 Y186.204 E121.9348
G1 X112.95 Y186.604 E121.97237
G1 X112.329 Y186.936 E122.00996
G1 X111.675 Y187.196 E122.04753
G1 X110.995 Y187.38 E122.08514
