;FLAVOR:RepRap
;TIME:11228
;Generated with Cura_SteamEngine 2.3.1
M190 S90
M104 S245
M109 S245
G21 ;metric values
G90 ;absolute positioning
M82 ;set extruder to absolute mode
M107 ;start with the fan off
G28 X0 Y0 ;move X/Y to min endstops
G28 Z0 ;move Z to min endstops
G1 Z15.0 F9000 ;move the platform down 15mm
G92 E0 ;zero the extruded length
G1 F200 E3 ;extrude 3mm of feed stock
G92 E0 ;zero the extruded length again
G1 F9000
;Put printing message on LCD screen
M117 Printing...
;LAYER_COUNT:141
;LAYER:0
M107
G0 F2520 X67.364 Y37.067 Z.3
;TYPE:SKIRT
G1 F2100 X67.782 Y36.396 E0.0422
G1 X68.265 Y35.772 E0.08433
G1 X68.808 Y35.199 E0.12647
G1 X69.407 Y34.684 E0.16864
G1 X70.055 Y34.233 E0.21078
G1 X70.746 Y33.849 E0.25298
G1 X71.471 Y33.537 E0.29512
G1 X72.224 Y33.3 E0.33726
G1 X72.998 Y33.141 E0.37944
G1 X73.783 Y33.06 E0.42157
G1 X74.185 Y33.05 E0.44303
G1 X125.814 Y33.05 E3.19912
G1 X126.603 Y33.09 E3.24129
G1 X127.383 Y33.209 E3.28341
G1 X128.148 Y33.407 E3.32559
G1 X128.888 Y33.681 E3.36772
G1 X129.597 Y34.029 E3.40988
G1 X130.268 Y34.447 E3.45208
G1 X130.892 Y34.93 E3.4942
G1 X131.465 Y35.473 E3.53635
G1 X131.98 Y36.072 E3.57852
G1 X132.431 Y36.72 E3.62066
G1 X132.815 Y37.411 E3.66286
G1 X133.127 Y38.136 E3.705
G1 X133.364 Y38.889 E3.74714
G1 X133.523 Y39.663 E3.78932
G1 X133.604 Y40.448 E3.83144
G1 X133.614 Y40.85 E3.85291
G1 X133.614 Y159.15 E10.16806
G1 X133.574 Y159.939 E10.21024
G1 X133.455 Y160.719 E10.25236
G1 X133.257 Y161.484 E10.29454
G1 X132.983 Y162.224 E10.33666
G1 X132.635 Y162.933 E10.37882
G1 X132.217 Y163.604 E10.42103
G1 X131.734 Y164.228 E10.46315
G1 X131.191 Y164.801 E10.50529
G1 X130.592 Y165.316 E10.54746
G1 X129.944 Y165.767 E10.58961
G1 X129.253 Y166.151 E10.63181
G1 X128.528 Y166.463 E10.67394
G1 X127.775 Y166.7 E10.71608
G1 X127.001 Y166.859 E10.75826
G1 X126.216 Y166.94 E10.80039
G1 X125.814 Y166.95 E10.82186
G1 X74.185 Y166.95 E13.57794
G1 X73.396 Y166.91 E13.62012
G1 X72.616 Y166.791 E13.66224
G1 X71.851 Y166.593 E13.70442
G1 X71.111 Y166.319 E13.74654
G1 X70.402 Y165.971 E13.7887
G1 X69.731 Y165.553 E13.83091
G1 X69.107 Y165.07 E13.87303
G1 X68.534 Y164.527 E13.91517
G1 X68.019 Y163.928 E13.95734
G1 X67.568 Y163.28 E13.99949
G1 X67.184 Y162.589 E14.04169
G1 X66.872 Y161.864 E14.08382
G1 X66.635 Y161.111 E14.12596
G1 X66.476 Y160.337 E14.16814
G1 X66.395 Y159.552 E14.21027
G1 X66.385 Y159.15 E14.23174
G1 X66.385 Y40.85 E20.54689
G1 X66.425 Y40.061 E20.58906
G1 X66.544 Y39.281 E20.63118
G1 X66.742 Y38.516 E20.67336
G1 X67.016 Y37.776 E20.71549
G1 X67.364 Y37.067 E20.75765
G0 F2520 X67.763 Y37.174
G1 F2100 X68.179 Y36.527 E20.79871
G1 X68.66 Y35.927 E20.83976
G1 X69.201 Y35.38 E20.88083
G1 X69.796 Y34.892 E20.92191
G1 X70.438 Y34.469 E20.96295
G1 X71.121 Y34.114 E21.00404
G1 X71.836 Y33.833 E21.04505
G1 X72.578 Y33.627 E21.08616
G1 X73.336 Y33.499 E21.1272
G1 X74.185 Y33.45 E21.1726
G1 X125.814 Y33.45 E23.92868
G1 X126.582 Y33.49 E23.96974
G1 X127.342 Y33.609 E24.0108
G1 X128.085 Y33.807 E24.05185
G1 X128.804 Y34.081 E24.09292
G1 X129.49 Y34.428 E24.13396
G1 X130.137 Y34.844 E24.17502
G1 X130.737 Y35.325 E24.21607
G1 X131.284 Y35.866 E24.25714
G1 X131.772 Y36.461 E24.29822
G1 X132.195 Y37.103 E24.33927
G1 X132.55 Y37.786 E24.38036
G1 X132.831 Y38.501 E24.42137
G1 X133.037 Y39.243 E24.46247
G1 X133.165 Y40.001 E24.50351
G1 X133.214 Y40.85 E24.54891
G1 X133.214 Y159.15 E30.86406
G1 X133.174 Y159.918 E30.90511
G1 X133.055 Y160.678 E30.94618
G1 X132.857 Y161.421 E30.98723
G1 X132.583 Y162.14 E31.0283
G1 X132.236 Y162.826 E31.06934
G1 X131.82 Y163.473 E31.1104
G1 X131.339 Y164.073 E31.15145
G1 X130.798 Y164.62 E31.19252
G1 X130.203 Y165.108 E31.2336
G1 X129.561 Y165.531 E31.27464
G1 X128.878 Y165.886 E31.31573
G1 X128.163 Y166.167 E31.35674
G1 X127.421 Y166.373 E31.39785
G1 X126.663 Y166.501 E31.43889
G1 X125.814 Y166.55 E31.48429
G1 X74.185 Y166.55 E34.24037
G1 X73.417 Y166.51 E34.28143
G1 X72.657 Y166.391 E34.32249
G1 X71.914 Y166.193 E34.36354
G1 X71.195 Y165.919 E34.40461
G1 X70.509 Y165.572 E34.44565
G1 X69.862 Y165.156 E34.48671
G1 X69.262 Y164.675 E34.52776
G1 X68.715 Y164.134 E34.56883
G1 X68.227 Y163.539 E34.60991
G1 X67.804 Y162.897 E34.65096
G1 X67.449 Y162.214 E34.69205
G1 X67.168 Y161.499 E34.73306
G1 X66.962 Y160.757 E34.77416
G1 X66.834 Y159.999 E34.8152
G1 X66.785 Y159.15 E34.8606
G1 X66.785 Y40.85 E41.17575
G1 X66.825 Y40.082 E41.2168
G1 X66.944 Y39.322 E41.25787
G1 X67.142 Y38.579 E41.29892
G1 X67.416 Y37.86 E41.33999
G1 X67.763 Y37.174 E41.38103
G0 F2520 X68.162 Y37.284
G1 F2100 X68.577 Y36.661 E41.42099
G1 X69.056 Y36.087 E41.4609
G1 X69.593 Y35.566 E41.50084
G1 X70.183 Y35.107 E41.54074
G1 X70.819 Y34.712 E41.58071
G1 X71.493 Y34.388 E41.62063
G1 X72.198 Y34.138 E41.66056
G1 X72.926 Y33.964 E41.70052
G1 X73.668 Y33.869 E41.74045
G1 X74.185 Y33.85 E41.76807
G1 X125.814 Y33.85 E44.52416
G1 X126.561 Y33.89 E44.56409
G1 X127.299 Y34.009 E44.604
G1 X128.021 Y34.207 E44.64396
G1 X128.717 Y34.48 E44.68387
G1 X129.38 Y34.827 E44.72382
G1 X130.003 Y35.242 E44.76378
G1 X130.577 Y35.721 E44.80369
G1 X131.098 Y36.258 E44.84363
G1 X131.557 Y36.848 E44.88353
G1 X131.952 Y37.484 E44.9235
G1 X132.276 Y38.158 E44.96342
G1 X132.526 Y38.863 E45.00335
G1 X132.7 Y39.591 E45.04331
G1 X132.795 Y40.333 E45.08324
G1 X132.814 Y40.85 E45.11086
G1 X132.814 Y159.15 E51.42601
G1 X132.774 Y159.897 E51.46594
G1 X132.655 Y160.635 E51.50585
G1 X132.457 Y161.357 E51.54581
G1 X132.184 Y162.053 E51.58573
G1 X131.837 Y162.716 E51.62567
G1 X131.422 Y163.339 E51.66563
G1 X130.943 Y163.913 E51.70554
G1 X130.406 Y164.434 E51.74548
G1 X129.816 Y164.893 E51.78539
G1 X129.18 Y165.288 E51.82535
G1 X128.506 Y165.612 E51.86527
G1 X127.801 Y165.862 E51.90521
G1 X127.073 Y166.036 E51.94516
G1 X126.331 Y166.131 E51.9851
G1 X125.814 Y166.15 E52.01271
G1 X74.185 Y166.15 E54.7688
G1 X73.438 Y166.11 E54.80873
G1 X72.7 Y165.991 E54.84864
G1 X71.978 Y165.793 E54.8886
G1 X71.282 Y165.52 E54.92851
G1 X70.619 Y165.173 E54.96846
G1 X69.996 Y164.758 E55.00842
G1 X69.422 Y164.279 E55.04833
G1 X68.901 Y163.742 E55.08827
G1 X68.442 Y163.152 E55.12818
G1 X68.047 Y162.516 E55.16814
G1 X67.723 Y161.842 E55.20806
G1 X67.473 Y161.137 E55.24799
G1 X67.299 Y160.409 E55.28795
G1 X67.204 Y159.667 E55.32788
G1 X67.185 Y159.15 E55.3555
G1 X67.185 Y40.85 E61.67065
G1 X67.225 Y40.103 E61.71059
G1 X67.344 Y39.365 E61.75049
G1 X67.542 Y38.643 E61.79046
G1 X67.815 Y37.947 E61.83037
G1 X68.162 Y37.284 E61.87031
G0 F2520 X68.56 Y37.397
G1 F2100 X68.974 Y36.8 E61.9091
G1 X69.45 Y36.252 E61.94785
G1 X69.984 Y35.759 E61.98664
G1 X70.569 Y35.329 E62.0254
G1 X71.198 Y34.965 E62.0642
G1 X71.863 Y34.672 E62.10299
G1 X72.556 Y34.454 E62.14177
G1 X73.268 Y34.314 E62.1805
G1 X74.185 Y34.25 E62.22958
G1 X125.814 Y34.25 E64.98566
G1 X126.539 Y34.29 E65.02442
G1 X127.256 Y34.409 E65.06322
G1 X127.955 Y34.607 E65.102
G1 X128.628 Y34.88 E65.14077
G1 X129.267 Y35.225 E65.17954
G1 X129.864 Y35.639 E65.21832
G1 X130.412 Y36.115 E65.25707
G1 X130.905 Y36.649 E65.29587
G1 X131.335 Y37.234 E65.33463
G1 X131.699 Y37.863 E65.37342
G1 X131.992 Y38.528 E65.41221
G1 X132.21 Y39.221 E65.45099
G1 X132.35 Y39.933 E65.48973
G1 X132.414 Y40.85 E65.5388
G1 X132.414 Y159.15 E71.85395
G1 X132.374 Y159.875 E71.89271
G1 X132.255 Y160.592 E71.93151
G1 X132.057 Y161.291 E71.9703
G1 X131.784 Y161.964 E72.00906
G1 X131.439 Y162.603 E72.04783
G1 X131.025 Y163.2 E72.08661
G1 X130.549 Y163.748 E72.12536
G1 X130.015 Y164.241 E72.16416
G1 X129.43 Y164.671 E72.20292
G1 X128.801 Y165.035 E72.24171
G1 X128.136 Y165.328 E72.2805
G1 X127.443 Y165.546 E72.31928
G1 X126.731 Y165.686 E72.35802
G1 X125.814 Y165.75 E72.40709
G1 X74.185 Y165.75 E75.16318
G1 X73.46 Y165.71 E75.20194
G1 X72.743 Y165.591 E75.24074
G1 X72.044 Y165.393 E75.27952
G1 X71.371 Y165.12 E75.31829
G1 X70.732 Y164.775 E75.35706
G1 X70.135 Y164.361 E75.39584
G1 X69.587 Y163.885 E75.43459
G1 X69.094 Y163.351 E75.47338
G1 X68.664 Y162.766 E75.51214
G1 X68.3 Y162.137 E75.55094
G1 X68.007 Y161.472 E75.58973
G1 X67.789 Y160.779 E75.62851
G1 X67.649 Y160.067 E75.66725
G1 X67.585 Y159.15 E75.71632
G1 X67.585 Y40.85 E82.03147
G1 X67.625 Y40.125 E82.07023
G1 X67.744 Y39.408 E82.10903
G1 X67.942 Y38.709 E82.14781
G1 X68.215 Y38.036 E82.18658
G1 X68.56 Y37.397 E82.22535
G0 F2520 X68.959 Y37.515
G1 F2100 X69.37 Y36.944 E82.2629
G1 X69.844 Y36.423 E82.3005
G1 X70.374 Y35.959 E82.33811
G1 X70.953 Y35.559 E82.37567
G1 X71.574 Y35.227 E82.41326
G1 X72.228 Y34.967 E82.45083
G1 X72.908 Y34.783 E82.48844
G1 X73.604 Y34.677 E82.52602
G1 X74.185 Y34.65 E82.55707
G1 X125.814 Y34.65 E85.31316
G1 X126.517 Y34.69 E85.35075
G1 X127.211 Y34.809 E85.38833
G1 X127.886 Y35.007 E85.42588
G1 X128.535 Y35.279 E85.46345
G1 X129.149 Y35.624 E85.50105
G1 X129.72 Y36.035 E85.5386
G1 X130.241 Y36.509 E85.5762
G1 X130.705 Y37.039 E85.61381
G1 X131.105 Y37.618 E85.65137
G1 X131.437 Y38.239 E85.68896
G1 X131.697 Y38.893 E85.72653
G1 X131.881 Y39.573 E85.76414
G1 X131.987 Y40.269 E85.80172
G1 X132.014 Y40.85 E85.83277
G1 X132.014 Y159.15 E92.14792
G1 X131.974 Y159.853 E92.18551
G1 X131.855 Y160.547 E92.2231
G1 X131.657 Y161.222 E92.26065
G1 X131.385 Y161.871 E92.29822
G1 X131.04 Y162.485 E92.33581
G1 X130.629 Y163.056 E92.37337
G1 X130.155 Y163.577 E92.41097
G1 X129.625 Y164.041 E92.44857
G1 X129.046 Y164.441 E92.48614
G1 X128.425 Y164.773 E92.52373
G1 X127.771 Y165.033 E92.5613
G1 X127.091 Y165.217 E92.59891
G1 X126.395 Y165.323 E92.63649
G1 X125.814 Y165.35 E92.66754
G1 X74.185 Y165.35 E95.42362
G1 X73.482 Y165.31 E95.46121
G1 X72.788 Y165.191 E95.4988
G1 X72.113 Y164.993 E95.53635
G1 X71.464 Y164.721 E95.57392
G1 X70.85 Y164.376 E95.61151
G1 X70.279 Y163.965 E95.64907
G1 X69.758 Y163.491 E95.68667
G1 X69.294 Y162.961 E95.72427
G1 X68.894 Y162.382 E95.76184
G1 X68.562 Y161.761 E95.79943
G1 X68.302 Y161.107 E95.837
G1 X68.118 Y160.427 E95.87461
G1 X68.012 Y159.731 E95.91219
G1 X67.985 Y159.15 E95.94324
G1 X67.985 Y40.85 E102.25839
G1 X68.025 Y40.147 E102.29598
G1 X68.144 Y39.453 E102.33357
G1 X68.342 Y38.778 E102.37112
G1 X68.614 Y38.129 E102.40868
G1 X68.959 Y37.515 E102.44628
G0 F2520 X69.357 Y37.636
G1 F2100 X69.767 Y37.092 E102.48264
G1 X70.238 Y36.601 E102.51896
G1 X70.763 Y36.167 E102.55533
G1 X71.335 Y35.798 E102.59166
G1 X71.947 Y35.499 E102.62802
G1 X72.589 Y35.274 E102.66434
G1 X73.254 Y35.125 E102.70072
G1 X74.185 Y35.05 E102.75058
G1 X125.814 Y35.05 E105.50667
G1 X126.494 Y35.09 E105.54303
G1 X127.164 Y35.209 E105.57935
G1 X127.816 Y35.406 E105.61571
G1 X128.44 Y35.678 E105.65205
G1 X129.028 Y36.022 E105.68842
G1 X129.572 Y36.432 E105.72478
G1 X130.063 Y36.903 E105.7611
G1 X130.497 Y37.428 E105.79746
G1 X130.866 Y38 E105.8338
G1 X131.165 Y38.612 E105.87016
G1 X131.39 Y39.254 E105.90648
G1 X131.539 Y39.919 E105.94286
G1 X131.614 Y40.85 E105.99272
G1 X131.614 Y159.15 E112.30787
G1 X131.574 Y159.83 E112.34423
G1 X131.455 Y160.5 E112.38056
G1 X131.258 Y161.152 E112.41692
G1 X130.986 Y161.776 E112.45326
G1 X130.642 Y162.364 E112.48962
G1 X130.232 Y162.908 E112.52599
G1 X129.761 Y163.399 E112.56231
G1 X129.236 Y163.833 E112.59867
G1 X128.664 Y164.202 E112.63501
G1 X128.052 Y164.501 E112.67137
G1 X127.41 Y164.726 E112.70768
G1 X126.745 Y164.875 E112.74406
G1 X125.814 Y164.95 E112.79392
G1 X74.185 Y164.95 E115.55001
G1 X73.505 Y164.91 E115.58637
G1 X72.835 Y164.791 E115.6227
G1 X72.183 Y164.594 E115.65906
G1 X71.559 Y164.322 E115.69539
G1 X70.971 Y163.978 E115.73176
G1 X70.427 Y163.568 E115.76812
G1 X69.936 Y163.097 E115.80444
G1 X69.502 Y162.572 E115.84081
G1 X69.133 Y162 E115.87714
G1 X68.834 Y161.388 E115.9135
G1 X68.609 Y160.746 E115.94982
G1 X68.46 Y160.081 E115.9862
G1 X68.385 Y159.15 E116.03606
G1 X68.385 Y40.85 E122.35121
G1 X68.425 Y40.17 E122.38757
G1 X68.544 Y39.5 E122.4239
G1 X68.741 Y38.848 E122.46026
G1 X69.013 Y38.224 E122.4966
G1 X69.357 Y37.636 E122.53296
G0 F2520 X69.755 Y37.762
G1 F2100 X70.163 Y37.247 E122.56804
G1 X70.63 Y36.785 E122.6031
G1 X71.15 Y36.384 E122.63816
G1 X71.714 Y36.048 E122.6732
G1 X72.316 Y35.784 E122.70829
G1 X72.945 Y35.594 E122.74337
G1 X73.592 Y35.483 E122.77841
G1 X74.185 Y35.45 E122.81012
G1 X125.814 Y35.45 E125.5662
G1 X126.47 Y35.49 E125.60129
G1 X127.116 Y35.609 E125.63635
G1 X127.743 Y35.806 E125.67144
G1 X128.341 Y36.078 E125.70651
G1 X128.902 Y36.42 E125.74158
G1 X129.417 Y36.828 E125.77666
G1 X129.879 Y37.295 E125.81172
G1 X130.28 Y37.815 E125.84678
G1 X130.616 Y38.379 E125.88182
G1 X130.88 Y38.981 E125.91691
G1 X131.07 Y39.61 E125.95199
G1 X131.181 Y40.257 E125.98703
G1 X131.214 Y40.85 E126.01874
G1 X131.214 Y159.15 E132.33389
G1 X131.174 Y159.806 E132.36897
G1 X131.055 Y160.452 E132.40404
G1 X130.858 Y161.079 E132.43912
G1 X130.586 Y161.677 E132.47419
G1 X130.244 Y162.238 E132.50927
G1 X129.836 Y162.753 E132.54434
G1 X129.369 Y163.215 E132.57941
G1 X128.849 Y163.616 E132.61446
G1 X128.285 Y163.952 E132.64951
G1 X127.683 Y164.216 E132.6846
G1 X127.054 Y164.406 E132.71967
G1 X126.407 Y164.517 E132.75472
G1 X125.814 Y164.55 E132.78642
G1 X74.185 Y164.55 E135.54251
G1 X73.529 Y164.51 E135.57759
G1 X72.883 Y164.391 E135.61266
G1 X72.256 Y164.194 E135.64774
G1 X71.658 Y163.922 E135.68281
G1 X71.097 Y163.58 E135.71789
G1 X70.582 Y163.172 E135.75296
G1 X70.12 Y162.705 E135.78803
G1 X69.719 Y162.185 E135.82308
G1 X69.383 Y161.621 E135.85813
G1 X69.119 Y161.019 E135.89322
G1 X68.929 Y160.39 E135.92829
G1 X68.818 Y159.743 E135.96334
G1 X68.785 Y159.15 E135.99504
G1 X68.785 Y40.85 E142.31019
G1 X68.825 Y40.194 E142.34528
G1 X68.944 Y39.548 E142.38034
G1 X69.141 Y38.921 E142.41543
G1 X69.413 Y38.323 E142.4505
G1 X69.755 Y37.762 E142.48557
G0 F2520 X70.152 Y37.894
G1 F2100 X70.558 Y37.409 E142.51933
G1 X71.021 Y36.979 E142.55307
G1 X71.535 Y36.61 E142.58684
G1 X72.091 Y36.31 E142.62057
G1 X72.68 Y36.082 E142.65428
G1 X73.294 Y35.93 E142.68805
G1 X74.185 Y35.85 E142.73581
G1 X125.814 Y35.85 E145.49189
G1 X126.445 Y35.89 E145.52564
G1 X127.066 Y36.009 E145.5594
G1 X127.666 Y36.206 E145.59311
G1 X128.238 Y36.477 E145.6269
G1 X128.77 Y36.817 E145.6606
G1 X129.255 Y37.223 E145.69437
G1 X129.685 Y37.686 E145.7281
G1 X130.054 Y38.2 E145.76187
G1 X130.354 Y38.756 E145.7956
G1 X130.582 Y39.345 E145.82932
G1 X130.734 Y39.959 E145.86308
G1 X130.814 Y40.85 E145.91084
G1 X130.814 Y159.15 E152.22599
G1 X130.774 Y159.781 E152.25974
G1 X130.655 Y160.402 E152.29349
G1 X130.458 Y161.002 E152.32721
G1 X130.187 Y161.574 E152.36099
G1 X129.847 Y162.106 E152.3947
G1 X129.441 Y162.591 E152.42846
G1 X128.978 Y163.021 E152.46219
G1 X128.464 Y163.39 E152.49597
G1 X127.908 Y163.69 E152.5297
G1 X127.319 Y163.918 E152.56341
G1 X126.705 Y164.07 E152.59718
G1 X125.814 Y164.15 E152.64493
G1 X74.185 Y164.15 E155.40102
G1 X73.554 Y164.11 E155.43477
G1 X72.933 Y163.991 E155.46853
G1 X72.333 Y163.794 E155.50224
G1 X71.761 Y163.523 E155.53603
G1 X71.229 Y163.183 E155.56973
G1 X70.744 Y162.777 E155.60349
G1 X70.314 Y162.314 E155.63723
G1 X69.945 Y161.8 E155.671
G1 X69.645 Y161.244 E155.70473
G1 X69.417 Y160.655 E155.73844
G1 X69.265 Y160.041 E155.77221
G1 X69.185 Y159.15 E155.81997
G1 X69.185 Y40.85 E162.13512
G1 X69.225 Y40.219 E162.16887
G1 X69.344 Y39.598 E162.20262
G1 X69.541 Y38.998 E162.23634
G1 X69.812 Y38.426 E162.27012
G1 X70.152 Y37.894 E162.30383
G0 F2520 X70.55 Y38.031
G1 F2100 X70.952 Y37.578 E162.33616
G1 X71.41 Y37.181 E162.36851
G1 X71.917 Y36.848 E162.4009
G1 X72.463 Y36.584 E162.43327
G1 X73.039 Y36.395 E162.46563
G1 X73.635 Y36.283 E162.498
G1 X74.185 Y36.25 E162.52742
G1 X125.814 Y36.25 E165.2835
G1 X126.419 Y36.29 E165.31587
G1 X127.013 Y36.409 E165.34821
G1 X127.587 Y36.605 E165.38059
G1 X128.13 Y36.876 E165.41298
G1 X128.633 Y37.215 E165.44537
G1 X129.086 Y37.617 E165.4777
G1 X129.483 Y38.075 E165.51005
G1 X129.816 Y38.582 E165.54243
G1 X130.08 Y39.128 E165.57481
G1 X130.269 Y39.704 E165.60717
G1 X130.381 Y40.3 E165.63954
G1 X130.414 Y40.85 E165.66896
G1 X130.414 Y159.15 E171.98411
G1 X130.374 Y159.755 E172.01647
G1 X130.255 Y160.349 E172.04881
G1 X130.059 Y160.923 E172.08119
G1 X129.788 Y161.466 E172.11359
G1 X129.449 Y161.969 E172.14597
G1 X129.047 Y162.422 E172.1783
G1 X128.589 Y162.819 E172.21066
